!!!COM: Beethoven, Ludwig van
!!!CDT: 1770///-1827///
!!!OTL: String Quartet No. 2 in G Major, Op. 18, No. 2
!!!OPS: Op. 18
!!!ONM: No. 2
!!!OMV: Mvmt. 4
!!!OMD: Allegro molto, quasi presto
**kern	**dynam	**kern	**dynam	**kern	**dynam	**kern	**dynam
*staff4	*staff4	*staff3	*staff3	*staff2	*staff2	*staff1	*staff1
*Icello	*Icello	*Iviola	*Iviola	*Ivioln	*Ivioln	*Ivioln	*Ivioln
*clefF4	*clefF4	*clefC3	*clefC3	*clefG2	*clefG2	*clefG2	*clefG2
*k[f#]	*k[f#]	*k[f#]	*k[f#]	*k[f#]	*k[f#]	*k[f#]	*k[f#]
*G:	*G:	*G:	*G:	*G:	*G:	*G:	*G:
*M2/4	*M2/4	*M2/4	*M2/4	*M2/4	*M2/4	*M2/4	*M2/4
*MM192	*MM192	*MM192	*MM192	*MM192	*MM192	*MM192	*MM192
=1-	=1-	=1-	=1-	=1-	=1-	=1-	=1-
4D'\	p	2r	.	2r	.	2r	.
4G'\	.	.	.	.	.	.	.
=2	=2	=2	=2	=2	=2	=2	=2
(4.B\	.	2r	.	2r	.	2r	.
16A\LL	.	.	.	.	.	.	.
16G\JJ)	.	.	.	.	.	.	.
=3	=3	=3	=3	=3	=3	=3	=3
8F#'\L	.	2r	.	2r	.	2r	.
8G'\J	.	.	.	.	.	.	.
8A'\L	.	.	.	.	.	.	.
8B'\J	.	.	.	.	.	.	.
=4	=4	=4	=4	=4	=4	=4	=4
4c\	.	2r	.	2r	.	2r	.
4r	.	.	.	.	.	.	.
=5	=5	=5	=5	=5	=5	=5	=5
4G'\	p	4B'/	p	4B'/	p	4d'/	p
4G'\	.	4B'/	.	4d'/	.	4g'/	.
=6	=6	=6	=6	=6	=6	=6	=6
(4.E\	.	(4.G/	.	(4.g/	.	(4.b\	.
16F#\LL	.	16A/LL	.	16f#/LL	.	16a/LL	.
16G\JJ)	.	16B/JJ)	.	16e/JJ)	.	16g/JJ)	.
=7	=7	=7	=7	=7	=7	=7	=7
8A'/L	.	8A/L	.	8d/L	.	8f#/L	.
8AA'/	.	8F#/J	.	8d/J	.	8a/J	.
8AA'/	.	8E/L	.	8c#/L	.	8g/L	.
8AA'/J	.	8G/J	.	8c#/J	.	8e/J	.
=8	=8	=8	=8	=8	=8	=8	=8
4D\	.	4F#/	.	4d/	.	4d/	.
4r	.	4r	.	4r	.	4r	.
=9	=9	=9	=9	=9	=9	=9	=9
4D'\	.	2r	.	2r	.	2r	.
4A'\	.	.	.	.	.	.	.
=10	=10	=10	=10	=10	=10	=10	=10
(4.c\	.	2r	.	2r	.	2r	.
16B\LL	.	.	.	.	.	.	.
16A\JJ)	.	.	.	.	.	.	.
=11	=11	=11	=11	=11	=11	=11	=11
8G'\L	.	2r	.	2r	.	2r	.
8G#'\J	.	.	.	.	.	.	.
8A'\L	.	.	.	.	.	.	.
8A#'\J	.	.	.	.	.	.	.
=12	=12	=12	=12	=12	=12	=12	=12
4B\	.	2r	.	2r	.	2r	.
4r	.	.	.	.	.	.	.
=13	=13	=13	=13	=13	=13	=13	=13
4B'\	p	4f#'\	p	4a'/	p	4dd#'\	p
4B'\	.	4a'\	.	4dd#'\	.	4ff#'\	.
=14	=14	=14	=14	=14	=14	=14	=14
4.B\	.	(4.cc\	.	4.dd#\	.	(4.aa\	.
8B\	.	16b\LL	.	8dd#\	.	16gg\LL	.
.	.	16a\JJ)	.	.	.	16ff#\JJ)	.
=15	=15	=15	=15	=15	=15	=15	=15
8e'\L	.	8g'\L	.	8b'\L	.	8ee'\L	.
8e'\J	.	8g'\J	.	8b'\J	.	8gg'\J	.
8B'\L	.	8a'\L	.	8cc'\L	.	8ff#'\L	.
8B'\J	.	8a'\J	.	8b'\J	.	8dd#'\J	.
=16	=16	=16	=16	=16	=16	=16	=16
4E\	.	4g\	.	4b\	.	4ee\	.
4r	.	4r	.	4r	.	4r	.
=17	=17	=17	=17	=17	=17	=17	=17
2G\	.	2d\	.	2fn/	.	(4ffn\	.
.	.	.	.	.	.	16ee\LL	.
.	.	.	.	.	.	16dd\	.
.	.	.	.	.	.	16cc\	.
.	.	.	.	.	.	16b\JJ)	.
=18	=18	=18	=18	=18	=18	=18	=18
4C/	.	4c\	.	4e/	.	(16cc\LL	.
.	.	.	.	.	.	16b\	.
.	.	.	.	.	.	16cc\	.
.	.	.	.	.	.	16dd\JJ	.
4r	.	4r	.	4r	.	4ee\)	.
=19	=19	=19	=19	=19	=19	=19	=19
[2D\	<	[2A/	<	[2f#/	<	(4.ccc\	<
.	.	.	.	.	.	16aa\LL	.
.	.	.	.	.	.	16ff#\JJ	.
=20	=20	=20	=20	=20	=20	=20	=20
8D/L]	.	8A/L]	.	8f#/L]	.	8dd'\L)	.
8C'/J	.	8F#'/J	.	8A'/J	.	8dd'\J	.
8BB'/L	.	8G'/L	.	8B'/L	.	8dd'\L	.
8AA'/J	.	8A'/J	.	8c'/J	.	8dd'\J	.
=21	=21	=21	=21	=21	=21	=21	=21
8GG/L	f	8B/L	f	4d'/	f	4dd'\	f
8G/J	.	8B/J	.	.	.	.	.
8G\L	.	8B/L	.	4g'/	.	4gg'\	.
8G\J	.	8B/J	.	.	.	.	.
=22	=22	=22	=22	=22	=22	=22	=22
8G\L	.	8B/L	.	(4.b\	.	(4.bb\	.
8G\J	.	8B/J	.	.	.	.	.
8G\L	.	8B/L	.	.	.	.	.
8G\J	.	8B/J	.	16a/LL	.	16aa\LL	.
.	.	.	.	16g/JJ)	.	16gg\JJ)	.
=23	=23	=23	=23	=23	=23	=23	=23
8A\L	.	8c\L	.	8f#'/L	.	8ff#'\L	.
8A\J	.	8c\J	.	8g'/J	.	8gg'\J	.
8A\L	.	8c\L	.	8a'/L	.	8aa'\L	.
8A\J	.	8c\J	.	8b'/J	.	8bb'\J	.
=24	=24	=24	=24	=24	=24	=24	=24
8A\L	.	8c/L	.	4cc\	.	4ccc\	.
8G\J	.	8B/J	.	.	.	.	.
8F#\L	.	8A/L	.	4r	.	4r	.
8E\J	.	8G/J	.	.	.	.	.
=25	=25	=25	=25	=25	=25	=25	=25
8D\L	.	8F#/L	.	4d'/	.	4dd'\	.
8D\J	.	8F#/J	.	.	.	.	.
8D\L	.	8F#/L	.	4a'/	.	4aa'\	.
8D\J	.	8F#/J	.	.	.	.	.
=26	=26	=26	=26	=26	=26	=26	=26
8D\L	.	8F#/L	.	(4.cc\	.	(4.ccc\	.
8D\J	.	8F#/J	.	.	.	.	.
8D/L	.	8F#/L	.	.	.	.	.
8C/J	.	8d/J	.	16b/LL	.	16bb\LL	.
.	.	.	.	16a/JJ)	.	16aa\JJ)	.
=27	=27	=27	=27	=27	=27	=27	=27
8BB/L	.	8d\L	.	8dd'\L	.	8ddd'\L	.
8E/J	.	8g\J	.	8b'\J	.	8bb'\J	.
8C/L	.	8e\L	.	8cc'\L	.	8ccc'\L	.
8D/J	.	8f#\J	.	8a'\J	.	8aa'\J	.
=28	=28	=28	=28	=28	=28	=28	=28
4GG/	.	4B/	p	4g/	p	8gg'\L	p
.	.	.	.	.	.	(16bb\L	.
.	.	.	.	.	.	16gg\JJ)	.
4r	.	8r	.	8r	.	[4dd\	.
.	.	(8g\	.	(8b\	.	.	.
=29	=29	=29	=29	=29	=29	=29	=29
2r	.	4f#\)	.	4cc\)	.	8dd\L]	.
.	.	.	.	.	.	16dd\L	.
.	.	.	.	.	.	16cc#\JJ	.
.	.	8r	.	8r	.	[4dd\	.
.	.	8f#\	.	8cc\	.	.	.
=30	=30	=30	=30	=30	=30	=30	=30
2r	.	8g'\L	.	8b'\L	.	8dd\L]	.
.	.	8e#'\J	.	8b'\J	.	(16dd\L	.
.	.	.	.	.	.	16ee\JJ)	.
.	.	8en'\L	.	8g'/L	.	8cc'\L	.
.	.	8f#'\J	.	8a'/J	.	(16cc\L	.
.	.	.	.	.	.	16dd\JJ)	.
=31	=31	=31	=31	=31	=31	=31	=31
2r	.	8g'\L	.	8b'/L	.	8b'\L	.
.	.	8e'\J	.	8g'/J	.	(16b\L	.
.	.	.	.	.	.	16cc\JJ)	.
.	.	8c'\L	.	8e'/L	.	8a'/L	.
.	.	8d'\J	.	8f#'/J	.	(16a/L	.
.	.	.	.	.	.	16b/JJ)	.
=32	=32	=32	=32	=32	=32	=32	=32
4GG/	p	4G/	.	4B/	.	8g/L	.
.	.	.	.	.	.	(16b/L	.
.	.	.	.	.	.	16g/JJ)	.
8r	.	8r	.	8r	.	[4d/	.
(8G\	.	(8G/	.	(8B/	.	.	.
=33	=33	=33	=33	=33	=33	=33	=33
4F#\)	.	4A/)	.	4c/)	.	8d/L]	.
.	.	.	.	.	.	(16d/L	.
.	.	.	.	.	.	16c#/JJ)	.
8r	.	8r	.	8r	.	[4d/	.
(8F#\	.	(8A/	.	(8c/	.	.	.
=34	=34	=34	=34	=34	=34	=34	=34
8GG/L)	<	8G/L)	<	8B/L)	<	8d/L]	<
8G/J	.	8B/J	.	8d/J	.	(16d/L	.
.	.	.	.	.	.	16cn/JJ	.
8G\L	.	8B/L	.	8d/L	.	16B/LL	.
.	.	.	.	.	.	16c/	.
8G\J	.	8B/J	.	8d/J	.	16B/	.
.	.	.	.	.	.	16A/JJ)	.
=35	=35	=35	=35	=35	=35	=35	=35
8EE/L	.	8B/L	.	8g/L	.	8G'/L	.
8E/J	.	8B/J	.	8g/J	.	(16g/L	.
.	.	.	.	.	.	16f#/JJ	.
8E\L	.	8A/L	.	8g/L	.	16g/LL	.
.	.	.	.	.	.	16a/	.
8E\J	.	8A/J	.	8g/J	.	16b/	.
.	.	.	.	.	.	16cc#/JJ)	.
=36	=36	=36	=36	=36	=36	=36	=36
4D\	f	4A/	f	4f#/	f	8dd'\L	f
.	.	.	.	.	.	(16dd\L	.
.	.	.	.	.	.	16cc#\JJ	.
4r	.	4r	.	4r	.	16dd\LL	.
.	.	.	.	.	.	16ee\	.
.	.	.	.	.	.	16ff#\	.
.	.	.	.	.	.	16dd\JJ)	.
=37	=37	=37	=37	=37	=37	=37	=37
2r	.	2r	.	2r	.	8gg'\L	.
.	.	.	.	.	.	(16gg\L	.
.	.	.	.	.	.	16ff#\JJ	.
.	.	.	.	.	.	16gg\LL	.
.	.	.	.	.	.	16aa\	.
.	.	.	.	.	.	16bb\	.
.	.	.	.	.	.	16ccc#\JJ)	.
=38	=38	=38	=38	=38	=38	=38	=38
4DD/	ff	8r	ff	8r	.	8ddd\	ff
.	.	8d\	.	8A/ 8fn/	.	8r	.
4D\	.	8d\L	.	8A/L 8f/	.	4r	.
.	.	8d\J	.	8A/J 8f/	.	.	.
=39	=39	=39	=39	=39	=39	=39	=39
(4.Fn\	.	8d\L	.	8A/L 8fn/	.	2r	.
.	.	8d\J	.	8A/J 8f/	.	.	.
.	.	8d\L	.	8A/L 8f/	.	.	.
16E\LL	.	8d\J	.	8A/J 8f/	.	.	.
16D\JJ)	.	.	.	.	.	.	.
=40	=40	=40	=40	=40	=40	=40	=40
8C#'/L	.	8e\L	.	8A/L 8g/	.	[2aa\	ff
8D'/J	.	8e\J	.	8A/J 8g/	.	.	.
8E'\L	.	8e\L	.	8A/L 8g/	.	.	.
8F#'\J	.	8e\J	.	8A/J 8g/	.	.	.
=41	=41	=41	=41	=41	=41	=41	=41
8G\	.	8e\L	.	8A/L 8g/	.	(8aa\L]	.
4r	.	8e\J	.	8A/J 8g/	.	8bb-\J	.
.	.	8e\L	.	8A/L 8g/	.	8aa\L	.
8r	.	8e\J	.	8A/J 8g/	.	8bb-\J)	.
=42	=42	=42	=42	=42	=42	=42	=42
4AA/	.	8c#\L	.	8A/L 8e/	.	4aa\	.
.	.	8c#\J	.	8A/J 8e/	.	.	.
4E\	.	8c#\L	.	8A/L 8e/	.	4r	.
.	.	8c#\J	.	8A/J 8e/	.	.	.
=43	=43	=43	=43	=43	=43	=43	=43
(4.G\	.	8c#\L	.	8A/L 8e/	.	2r	.
.	.	8c#\J	.	8A/J 8e/	.	.	.
.	.	8c#\L	.	8A/L 8e/	.	.	.
16F#\LL	.	8c#\J	.	8A/J 8e/	.	.	.
16E\JJ)	.	.	.	.	.	.	.
=44	=44	=44	=44	=44	=44	=44	=44
8D'\L	.	8d\L	.	8A/L 8fn/	.	[2ddd\	.
8E'\J	.	8d\J	.	8f/J	.	.	.
8Fn'\L	.	8d\L	.	8f/L	.	.	.
8G'\J	.	8d\J	.	8f/J	.	.	.
=45	=45	=45	=45	=45	=45	=45	=45
8A\	.	8d\L	.	8fn/L	.	(8ddd\L]	.
4r	.	8d\J	.	8f/J	.	8ccc#\J	.
.	.	8d\L	.	8f/L	.	8ddd\L	.
8r	.	8d\J	.	8f/J	.	8ccc#\J)	.
=46	=46	=46	=46	=46	=46	=46	=46
8BB-/L	.	8d\L	.	8fn/L	.	4ddd'\	.
8C/J	.	8d\J	.	8f/J	.	.	.
8D\L	.	8d\L	.	8f/L	.	[4fffn\	.
8E-\J	.	8d\J	.	8f/J	.	.	.
=47	=47	=47	=47	=47	=47	=47	=47
8Fn\	.	8d\L	.	8fn/L	.	(8fff\L]	.
4r	.	8d\J	.	8f/J	.	8eee\J	.
.	.	8d\L	.	8f/L	.	8fffn\L	.
8r	.	8d\J	.	8f/J	.	8eee\J)	.
=48	=48	=48	=48	=48	=48	=48	=48
8GG#/L	.	8d\L	.	8fn/L	.	4fffn\	.
8AA/J	.	8d\J	.	8f/J	.	.	.
8BB/L	.	8d\L	.	8f/L	.	[4ffn\	.
8C#/J	.	8d\J	.	8f/J	.	.	.
=49	=49	=49	=49	=49	=49	=49	=49
4D\	.	8d\L	.	(8fn/L	.	(8ff\L]	.
.	.	8c#\J	.	8e/J)	.	8ee\J)	.
4GG#/	.	8d'\L	.	8f'/L	.	8ffn'\L	.
.	.	8d'\J	.	8f'/J	.	8ff'\J	.
=50	=50	=50	=50	=50	=50	=50	=50
4AA'/	.	4c#'\	.	4e'/	.	8ee'\L	.
.	.	.	.	.	.	8a'\J	.
8r	.	8r	.	8r	.	[4aa\	.
8A'\	.	8a'\	.	8cc#'\	.	.	.
=51	=51	=51	=51	=51	=51	=51	=51
4AA'/	.	4g#'\	.	4d'/	.	8aa\L]	.
.	.	.	.	.	.	8b\J	.
8r	.	8r	.	8r	.	[4bb\	.
8A'\	.	8g#'\	.	8dd'\	.	.	.
=52	=52	=52	=52	=52	=52	=52	=52
4AA'/	.	4g'\	.	4e'/	.	8bb\L]	.
.	.	.	.	.	.	8cc#\J	.
8r	.	8r	.	8r	.	[4ccc#\	.
8A'\	.	8g'\	.	8ee'\	.	.	.
=53	=53	=53	=53	=53	=53	=53	=53
4AA'/	.	4f#'\	.	4f#'/	.	8ccc#\L]	.
.	.	.	.	.	.	8dd\J	.
8r	.	8r	.	8r	.	[4ddd\	.
8A'\	.	8f#'\	.	8ff#'\	.	.	.
=54	=54	=54	=54	=54	=54	=54	=54
4AA/	.	4c#\	.	4g/	.	8ddd\L]	f
.	.	.	.	.	.	(8ee\J	.
4r	.	4r	.	4r	.	8eee\L)	>
.	.	.	.	.	.	8ddd\J	.
=55	=55	=55	=55	=55	=55	=55	=55
2r	.	2r	.	2r	.	8ccc#'\L	.
.	.	.	.	.	.	8bb'\J	.
.	.	.	.	.	.	8aa'\L	.
.	.	.	.	.	.	8gg'\J	.
=56	=56	=56	=56	=56	=56	=56	=56
2r	.	2r	p	8d'/L	.	8ff#\	p
.	.	.	.	8f#'/J	.	4ff#\	.
.	.	.	.	8a'\L	.	.	.
.	.	.	.	8cc#'\J	.	[8ff#\	.
=57	=57	=57	=57	=57	=57	=57	=57
2r	.	2r	.	8dd'\L	.	8ff#\L]	.
.	.	.	.	8cc#'\J	.	8ff#\J	.
.	.	.	.	8dd'\L	.	(16gg\LL	.
.	.	.	.	.	.	16ff#\	.
.	.	.	.	8b'\J	.	16ee\	.
.	.	.	.	.	.	16ff#\JJ)	.
=58	=58	=58	=58	=58	=58	=58	=58
2r	.	2r	.	4g/	.	(8gg\L	.
.	.	.	.	.	.	8ee\J	.
.	.	.	.	4g#/	.	8ff#\L	.
.	.	.	.	.	.	8dd\J)	.
=59	=59	=59	=59	=59	=59	=59	=59
2r	.	2r	.	4a/	.	(8dd\L	.
.	.	.	.	.	.	8cc#\J	.
.	.	.	.	4r	.	8b/L	.
.	.	.	.	.	.	8a/J)	.
=60	=60	=60	=60	=60	=60	=60	=60
2r	.	8d'\L	p	8f#'/L	.	8aa\	.
.	.	8f#'\J	.	8a'/J	.	4aa\	.
.	.	8a'\L	.	8dd'\L	.	.	.
.	.	8cc#'\J	.	8ee'\J	.	[8aa\	.
=61	=61	=61	=61	=61	=61	=61	=61
2r	.	8dd'\L	.	8ff#'\L	.	8aa\L]	.
.	.	8cc#'\J	.	8ee'\J	.	8aa\J	.
.	.	8dd'\L	.	8ff#'\L	.	(16bb\LL	.
.	.	.	.	.	.	16aa\	.
.	.	8b'\J	.	8dd'\J	.	16gg\	.
.	.	.	.	.	.	16aa\JJ)	.
=62	=62	=62	=62	=62	=62	=62	=62
2r	.	8g'\L	.	8b'\L	.	8bb\L	.
.	.	8e'\J	.	8b'\J	.	8gg\J	.
.	.	8a'\L	.	8g'/L	.	8ee\L	.
.	.	8A'\J	.	8e'/J	.	8cc#\J	.
=63	=63	=63	=63	=63	=63	=63	=63
2r	.	16d\LL	.	4f#/	.	4dd\	.
.	.	(16f#\	.	.	.	.	.
.	.	16e\	.	.	.	.	.
.	.	16d\JJ	.	.	.	.	.
.	.	16c#/LL	.	4r	.	4r	.
.	.	16B/	.	.	.	.	.
.	.	16A/	.	.	.	.	.
.	.	16G/JJ)	.	.	.	.	.
=64	=64	=64	=64	=64	=64	=64	=64
8DD'/L	p	8F#/	p	2r	.	2r	.
8FF#'/J	.	4F#/	.	.	.	.	.
8AA'/L	.	.	.	.	.	.	.
8C#'/J	.	[8F#/	.	.	.	.	.
=65	=65	=65	=65	=65	=65	=65	=65
8D/L	.	8F#/L]	.	2r	.	2r	.
8C#/J	.	8F#/J	.	.	.	.	.
8D\L	.	(16G/LL	.	.	.	.	.
.	.	16F#/	.	.	.	.	.
8D\J	.	16E/	.	.	.	.	.
.	.	16F#/JJ)	.	.	.	.	.
=66	=66	=66	=66	=66	=66	=66	=66
4E\	.	4G/	.	8c#'/L	.	8gg'\L	.
.	.	.	.	8e'/J	.	8ee'\J	.
4r	.	4r	.	8g'/L	.	8cc#'/L	.
.	.	.	.	8cc#'/J	.	8g'/J	.
=67	=67	=67	=67	=67	=67	=67	=67
2r	.	2r	.	8ee/L	.	8g'/L	.
.	.	.	.	8e/J	.	8g'/J	.
.	.	.	.	8e/L	.	(16a/LL	.
.	.	.	.	.	.	16g/	.
.	.	.	.	8e/J	.	16f#/	.
.	.	.	.	.	.	16g/JJ)	.
=68	=68	=68	=68	=68	=68	=68	=68
8FF#'/L	.	8A/	.	4A/	.	4a/	.
8AA'/J	.	4A/	.	.	.	.	.
8D'\L	.	.	.	4r	.	4r	.
8E'\J	.	[8A/	.	.	.	.	.
=69	=69	=69	=69	=69	=69	=69	=69
8F#\L	.	8A/L]	.	2r	.	2r	.
8E#\J	.	8A'/J	.	.	.	.	.
8F#\L	.	(16B/LL	.	.	.	.	.
.	.	16A/	.	.	.	.	.
8F#\J	.	16G/	.	.	.	.	.
.	.	16A/JJ)	.	.	.	.	.
=70	=70	=70	=70	=70	=70	=70	=70
4G\	.	4B/	.	8G'/L	.	8bb'\L	.
.	.	.	.	8B'/J	.	8gg'\J	.
4r	.	4r	.	8d'/L	.	8dd'\L	.
.	.	.	.	8g'/J	.	8b'\J	.
=71	=71	=71	=71	=71	=71	=71	=71
2r	.	2r	.	8g/L	.	8b'\L	.
.	.	.	.	8g/J	.	8b'\J	.
.	.	.	.	8g/L	.	(16cc#\LL	.
.	.	.	.	.	.	16b\	.
.	.	.	.	8g/J	.	16a\	.
.	.	.	.	.	.	16b\JJ)	.
=72	=72	=72	=72	=72	=72	=72	=72
4A\	.	4r	.	4g/	.	8cc#\L	.
.	.	.	.	.	.	8cc#\J	.
4r	.	4e\	.	4g/	.	(16dd\LL	.
.	.	.	.	.	.	16cc#\	.
.	.	.	.	.	.	16b\	.
.	.	.	.	.	.	16cc#\JJ)	.
=73	=73	=73	=73	=73	=73	=73	=73
4A\	.	4r	.	4r	.	8dd\L	.
.	.	.	.	.	.	8dd\J	.
4r	.	4d\	.	4f#/	.	(16ee\LL	.
.	.	.	.	.	.	16dd\	.
.	.	.	.	.	.	16cc#\	.
.	.	.	.	.	.	16dd\JJ)	.
=74	=74	=74	=74	=74	=74	=74	=74
4A\	.	4r	.	4r	.	8ee\L	.
.	.	.	.	.	.	8ee\J	.
4r	.	4c#\	.	4e/	.	(16ff#\LL	.
.	.	.	.	.	.	16ee\	.
.	.	.	.	.	.	16dd\	.
.	.	.	.	.	.	16ee\JJ)	.
=75	=75	=75	=75	=75	=75	=75	=75
4A\	.	4r	.	4r	.	8ff#\L	.
.	.	.	.	.	.	8ff#\J	.
4r	.	4B/	.	4d/	.	(16gg\LL	.
.	.	.	.	.	.	16ff#\	.
.	.	.	.	.	.	16ee\	.
.	.	.	.	.	.	16ff#\JJ)	.
=76	=76	=76	=76	=76	=76	=76	=76
2AA/	p	2A/	p	2c#/	p	(4gg\	p
.	.	.	.	.	.	4ee\	.
=77	=77	=77	=77	=77	=77	=77	=77
4AA#/	.	4B-/	.	4g/	.	2cc#\)	.
4GG/	.	4G/	.	4e/	.	.	.
=78	=78	=78	=78	=78	=78	=78	=78
2AA/	.	2A/	.	2c#/	.	(4ccc#\	.
.	.	.	.	.	.	4gg\	.
=79	=79	=79	=79	=79	=79	=79	=79
4BB-/	.	4B-/	.	4g/	.	2ee\)	.
4GG/	.	4G/	.	4e/	.	.	.
=80	=80	=80	=80	=80	=80	=80	=80
2AA/	.	2A/	.	2c#/	.	(4eee\	.
.	.	.	.	.	.	4ccc#\	.
=81	=81	=81	=81	=81	=81	=81	=81
4BB-/	.	4B-/	.	4g/	.	2gg\)	.
4GG/	.	4G/	.	4e/	.	.	.
=82	=82	=82	=82	=82	=82	=82	=82
2AA/	.	2A/	.	2c#/	.	(4ggg\	.
.	.	.	.	.	.	4eee\	.
=83	=83	=83	=83	=83	=83	=83	=83
4BB-/	.	4B-/	.	4g/	.	2ccc#\)	.
4GG/	.	4G/	.	4e/	.	.	.
=84	=84	=84	=84	=84	=84	=84	=84
8GG#/L	.	[2G#/	.	[2B/ [2d/	.	(8fffn\L	.
8BB/J	<	.	.	.	.	8ddd\J	<
8D\L	.	.	.	.	.	8bb\L	.
8E#\J	.	.	.	.	.	8gg#\J	.
=85	=85	=85	=85	=85	=85	=85	=85
4G#\	.	(8G#\L]	<	8B/] 8d/]	<	8ee#\L	.
.	.	8Bn\	.	4d/	.	8dd\J	.
8r	.	8d\	.	.	.	8b/L	.
8BB/	.	8fn\J)	.	[8d/	.	8g#/J)	.
=86	=86	=86	=86	=86	=86	=86	=86
8AA'/L	f	8f#'/L	f	8d/L]	f	(4.a/	f
8AA'/J	.	8F#'/J	.	8d'/J	.	.	.
8AA'/L	.	8F#'/L	.	8d'/L	.	.	.
8AA'/J	.	8F#'/J	.	8d'/J	.	16f#/LL	.
.	.	.	.	.	.	16d/JJ)	.
=87	=87	=87	=87	=87	=87	=87	=87
8AA/L	.	8Gn/L	.	8c#/L	.	2e/	.
8AA/J	.	8G/J	.	8c#/J	.	.	.
8AA/L	.	8G/L	.	8c#/L	.	.	.
8AA/J	.	8G/J	.	8c#/J	.	.	.
=88	=88	=88	=88	=88	=88	=88	=88
2A\	p	2r	.	2r	.	(4cc#\	p
.	.	.	.	.	.	4g/	.
=89	=89	=89	=89	=89	=89	=89	=89
(4B-\	.	(4g\	p	2r	.	2e/)	.
4G\)	.	4e\)	.	.	.	.	.
=90	=90	=90	=90	=90	=90	=90	=90
2A\	.	2r	.	(4g/	p	(4ee\	.
.	.	.	.	4e/)	.	4cc#\	.
=91	=91	=91	=91	=91	=91	=91	=91
(4B-\	.	(4g\	.	2r	.	2g/)	.
4G\	.	4e\)	.	.	.	.	.
=92	=92	=92	=92	=92	=92	=92	=92
2A\)	.	2r	.	(4ee\	.	(4gg\	.
.	.	.	.	4cc#\)	.	4ee\	.
=93	=93	=93	=93	=93	=93	=93	=93
(4B-\	.	(4g\	.	2r	.	2cc#\)	.
4G\	.	4e\)	.	.	.	.	.
=94	=94	=94	=94	=94	=94	=94	=94
4A\)	pp	2r	.	2r	.	(8gg\L	pp
.	.	.	.	.	.	8ee\J	.
(8B-\L	.	.	.	.	.	4cc#\	.
8G\J	.	.	.	.	.	.	.
=95	=95	=95	=95	=95	=95	=95	=95
4E\)	.	4G/	pp	2r	.	8bb-\L	.
.	.	.	.	.	.	8gg\J	.
(8G\L	.	(8B-/L	.	.	.	4ee\)	.
8E\J)	.	8G/J)	.	.	.	.	.
=96	=96	=96	=96	=96	=96	=96	=96
[2C/	.	2E/	.	(8G/L	pp	(2bb-\	.
.	.	.	.	8c/J	.	.	.
.	.	.	.	8G/L	.	.	.
.	.	.	.	8c/J)	.	.	.
=97	=97	=97	=97	=97	=97	=97	=97
2C/_	.	2Fn/	.	(8A/L	.	8aa\L	.
.	.	.	.	8c/J	.	8gg#\J	.
.	.	.	.	8A/L	.	8aa\L	.
.	.	.	.	8c/J)	.	8ffn\J)	.
=98	=98	=98	=98	=98	=98	=98	=98
2C/_	.	2G/	.	(8B-/L	.	4ee'\	.
.	.	.	.	8c/J	.	.	.
.	.	.	.	8B-/L	.	4ee'\	.
.	.	.	.	8c/J)	.	.	.
=99	=99	=99	=99	=99	=99	=99	=99
2C/_	.	2Fn/	.	(8A/L	.	(4.ffn\	.
.	.	.	.	8c/J	.	.	.
.	.	.	.	8A/L	.	.	.
.	.	.	.	8c/J)	.	16gg\LL	.
.	.	.	.	.	.	16aa\JJ)	.
=100	=100	=100	=100	=100	=100	=100	=100
2C/_	.	2E/	.	(8G/L	.	(2bb-\	.
.	.	.	.	8c/J	.	.	.
.	.	.	.	8G/L	.	.	.
.	.	.	.	8c/J)	.	.	.
=101	=101	=101	=101	=101	=101	=101	=101
2C/_	.	2Fn/	.	(8A/L	.	8aa\L	.
.	.	.	.	8c/J	.	8gg#\J	.
.	.	.	.	8A/L	.	8aa\L	.
.	.	.	.	8c/J)	.	8ffn\J)	.
=102	=102	=102	=102	=102	=102	=102	=102
2C/]	.	2G/	.	(8B-/L	.	4ee'\	.
.	.	.	.	8c/J	.	.	.
.	.	.	.	8B-/L	.	4ee'\	.
.	.	.	.	8c/J)	.	.	.
=103	=103	=103	=103	=103	=103	=103	=103
2Fn\	.	2Fn/	.	(8A/L	.	(4.ffn\	.
.	.	.	.	8c/J	.	.	.
.	.	.	.	8A/L	.	.	.
.	.	.	.	8c/J)	.	8ee\)	.
=104	=104	=104	=104	=104	=104	=104	=104
8F#\L	.	8c/L	.	8A/L	.	[2dd#\	.
8F#\J	<	8A/J	<	8c/J	<	.	.
8F#\L	.	8A/L	.	8c/L	.	.	.
8F#\J	.	8A/J	.	8c/J	.	.	.
=105	=105	=105	=105	=105	=105	=105	=105
8F#\L	.	8A/L	.	8c/L	.	2dd#\]	<
8F#\J	.	8A/J	.	8c/J	.	.	.
8F#\L	.	8A/L	.	8c/L	.	.	.
8F#\J	.	8A/J	.	8c/J	.	.	.
=106	=106	=106	=106	=106	=106	=106	=106
8E\L	.	8A/L	.	8c#/L	.	(4.ee\	.
8E\J	.	8A/J	.	8c#/J	.	.	.
8E\L	.	8A/L	.	8c#/L	.	.	.
8E\J	.	8A/J	.	8c#/J	.	16cc#\LL	.
.	.	.	.	.	.	16a\JJ)	.
=107	=107	=107	=107	=107	=107	=107	=107
8E\L	.	8G#/L	.	8d/L	.	2b\	.
8E\J	.	8G#/J	.	8d/J	.	.	.
8E\L	.	8G#/L	.	8d/L	.	.	.
8E\J	.	8G#/J	.	8d/J	.	.	.
=108	=108	=108	=108	=108	=108	=108	=108
8AA\L	f	8G/L	f	8e/L	f	[2cc#\	f
8A\J	.	8e/J	.	8g/J	.	.	.
8A\L	.	8e\L	.	8g/L	.	.	.
8A\J	.	8e\J	.	8g/J	.	.	.
=109	=109	=109	=109	=109	=109	=109	=109
8A#\L	.	8e\L	.	8g/L	.	2cc#\]	.
8A#\J	.	8e\J	.	8g/J	.	.	.
8A#\L	.	8e\L	.	8g/L	.	.	.
8A#\J	.	8e\J	.	8g/J	.	.	.
=110	=110	=110	=110	=110	=110	=110	=110
8B\L	ff	8d\L	ff	8f#/L	ff	4dd\	ff
8B\J	.	8d\J	.	8f#/J	.	.	.
8G#\L	.	8d\L	.	8b\L	.	4ee\	.
8G#\J	.	8d\J	.	8b\J	.	.	.
=111	=111	=111	=111	=111	=111	=111	=111
8An\L	.	8d\L	.	8a/L	.	4ff#'\	.
8A\J	.	8d\J	.	8a/J	.	.	.
8AAn/L	.	8c#\L	.	8g/L	.	4ee'\	.
8AA/J	.	8c#\J	.	8g/J	.	.	.
=112	=112	=112	=112	=112	=112	=112	=112
(16D\LL	.	4d'\	.	4f#'/	.	4dd\	.
16E\	.	.	.	.	.	.	.
16F#\	.	.	.	.	.	.	.
16G\JJ	.	.	.	.	.	.	.
16A\LL	.	4d'\	.	4dd'\	.	4r	.
16G\	.	.	.	.	.	.	.
16F#\	.	.	.	.	.	.	.
16E\JJ	.	.	.	.	.	.	.
=113	=113	=113	=113	=113	=113	=113	=113
16D\LL	.	(4.f#\	ff	(4.ff#\	ff	2r	.
16E\	.	.	.	.	.	.	.
16F#\	.	.	.	.	.	.	.
16G\JJ	.	.	.	.	.	.	.
16A\LL	.	.	.	.	.	.	.
16B\	.	.	.	.	.	.	.
16c#\	.	16e\LL	.	16ee\LL	.	.	.
16d\JJ)	.	16d\JJ)	.	16dd\JJ)	.	.	.
=114	=114	=114	=114	=114	=114	=114	=114
8D\L	.	8c#\L	.	(16cc#\LL	.	4aa'\	.
.	.	.	.	16dd\	.	.	.
8D\J	.	8g\J	.	16ee\	.	.	.
.	.	.	.	16ff#\JJ	.	.	.
8D\L	.	8g\L	.	16gg\LL	.	4eee'\	.
.	.	.	.	16ff#\	.	.	.
8D\J	.	8g\J	.	16ee\	.	.	.
.	.	.	.	16dd\JJ	.	.	.
=115	=115	=115	=115	=115	=115	=115	=115
8D\L	.	8g\L	.	16cc#\LL	.	4.ggg\	.
.	.	.	.	16dd\	.	.	.
8D\J	.	8g\J	.	16ee\	.	.	.
.	.	.	.	16dd\JJ	.	.	.
8D\L	.	8g\L	.	16cc#\LL	.	.	.
.	.	.	.	16a\	.	.	.
8D\J	.	8g\J	.	16b\	.	16fff#\LL	.
.	.	.	.	16cc#\JJ)	.	16eee\JJ	.
=116	=116	=116	=116	=116	=116	=116	=116
(16DD/LL	.	8f#\L	.	8dd\L	.	4ddd\	.
16EE/	.	.	.	.	.	.	.
16FF#/	.	8A\J	.	8a\J	.	.	.
16GG/JJ	.	.	.	.	.	.	.
16AA/LL	.	8d\L	.	8dd\L	.	4r	.
16GG/	.	.	.	.	.	.	.
16FF#/	.	8d\J	.	8dd\J	.	.	.
16EE/JJ	.	.	.	.	.	.	.
=117	=117	=117	=117	=117	=117	=117	=117
16DD/LL	.	(4.f#\	.	(4.ff#\	.	2r	.
16EE/	.	.	.	.	.	.	.
16FF#/	.	.	.	.	.	.	.
16GG/JJ	.	.	.	.	.	.	.
16AA/LL	.	.	.	.	.	.	.
16BB/	.	.	.	.	.	.	.
16C#/	.	16e\LL	.	16ee\LL	.	.	.
16D/JJ)	.	16d\JJ)	.	16dd\JJ)	.	.	.
=118	=118	=118	=118	=118	=118	=118	=118
8DD/L	.	(16c#\LL	.	(16cc#\LL	.	8aa\L	.
.	.	16d\)	.	16dd\	.	.	.
8D/J	.	16e\	.	16ee\	.	8aa\J	.
.	.	16f#\JJ	.	16ff#\JJ	.	.	.
8D\L	.	16g\LL	.	16gg\LL)	.	8eee\L	.
.	.	16f#\	.	16ff#\	.	.	.
8D\J	.	16e\	.	16ee\	.	8eee\J	.
.	.	16d\JJ	.	16dd\JJ	.	.	.
=119	=119	=119	=119	=119	=119	=119	=119
8D\L	.	(16c#\LL	.	16cc#\LL	.	4.ggg\	.
.	.	16d\	.	16dd\	.	.	.
8D\J	.	16e\	.	16ee\	.	.	.
.	.	16d\JJ	.	16dd\JJ	.	.	.
8D\L	.	16c#/LL	.	16cc#\LL	.	.	.
.	.	16A/	.	16a\	.	.	.
8D\J	.	16B/	.	(16b\	.	16fff#\LL	.
.	.	16c#/JJ)	.	16cc#\JJ)	.	16eee\JJ	.
=120	=120	=120	=120	=120	=120	=120	=120
8DD/L	.	8d\	.	8dd\	.	8ddd'\L	.
8D/J	.	4g\	.	4cc#\	.	(16eee\L	.
.	.	.	.	.	.	16fff#\JJ	.
8D\L	.	.	.	.	.	8ggg'\L)	.
8D\J	.	8g\	.	8cc#\	.	(16fff#\L	.
.	.	.	.	.	.	16eee\JJ	.
=121	=121	=121	=121	=121	=121	=121	=121
8DD/L	.	8f#\	.	8dd\	.	8ddd'\L)	.
8D/J	.	4G/	.	4c#/	.	(16eee\L	.
.	.	.	.	.	.	16fff#\JJ	.
8D\L	.	.	.	.	.	8ggg'\L)	.
8D\J	.	8G/	.	8c#/	.	(16fff#\L	.
.	.	.	.	.	.	16eee\JJ	.
=122	=122	=122	=122	=122	=122	=122	=122
4DD/	.	4F#/	.	4d/	.	4ddd'\)	.
4r	.	4r	.	4a/	.	4aa'\	.
=123	=123	=123	=123	=123	=123	=123	=123
4A'\	.	4a'\	.	2f#/	.	2ff#\	.
4F#'\	.	4f#'\	.	.	.	.	.
=124	=124	=124	=124	=124	=124	=124	=124
2D\	.	2d\	.	4a/	.	4aa'\	.
.	.	.	.	4f#/	.	4ff#'\	.
=125	=125	=125	=125	=125	=125	=125	=125
4F#'\	.	4f#'\	.	2d/	.	2dd\	.
4D'\	.	4d'\	.	.	.	.	.
=126	=126	=126	=126	=126	=126	=126	=126
2AA/	.	2A/	.	4f#/	.	4ff#'\	.
.	.	.	.	4d/	.	4dd'\	.
=127	=127	=127	=127	=127	=127	=127	=127
4D'\	.	4d'\	.	2A/	.	2a/	.
4AA'/	.	4A'/	.	.	.	.	.
=128	=128	=128	=128	=128	=128	=128	=128
4FF#/	.	4F#/	.	4d/	.	8dd'\L	.
.	.	.	.	.	.	8a'\J	.
8A'\L	.	[4F#/	.	[4A/	.	4f#/	.
8F#'\J	.	.	.	.	.	.	.
=129	=129	=129	=129	=129	=129	=129	=129
4D\	.	4F#/]	.	4A/]	.	8a'/L	.
.	.	.	.	.	.	8f#'/J	.
8F#'\L	.	[4F#/	.	[4A/	.	4d/	.
8D'\J	.	.	.	.	.	.	.
=130	=130	=130	=130	=130	=130	=130	=130
4AA/	.	4F#/]	.	4A/]	.	8f#'/L	.
.	.	.	.	.	.	8d'/J	.
8D'/L	.	[4F#/	.	[4A/	.	4A/	.
8AA'/J	.	.	.	.	.	.	.
=131	=131	=131	=131	=131	=131	=131	=131
4FF#/	.	4F#/]	.	4A/]	.	8a'/L	.
.	.	.	.	.	.	8f#'/J	.
8AA'/L	.	[4F#/	.	[4A/	.	4d/	.
8FF#'/J	.	.	.	.	.	.	.
=132	=132	=132	=132	=132	=132	=132	=132
4DD/	.	4F#/]	.	4A/]	.	8a'/L	.
.	.	.	.	.	.	8f#'/J	.
8AA'/L	.	[4F#/	.	[4A/	.	4d/	.
8FF#'/J	.	.	.	.	.	.	.
=133	=133	=133	=133	=133	=133	=133	=133
4DD/	.	4F#/]	.	4A/]	.	8a'/L	.
.	.	.	.	.	.	8f#'/J	.
8AA'/L	.	[4F#/	.	[4A/	.	4d/	.
8FF#'/J	.	.	.	.	.	.	.
=134	=134	=134	=134	=134	=134	=134	=134
2DD/	.	4F#/]	.	4A/]	.	8a'/L	.
.	.	.	.	.	.	8f#'/J	.
.	.	[4F#/	.	[4A/	.	[4d/	.
=135	=135	=135	=135	=135	=135	=135	=135
8AA'/L	>	2F#/_	>	2A/_	>	2d/]	>
8FF#'/J	.	.	.	.	.	.	.
[4DD/	.	.	.	.	.	.	.
=136	=136	=136	=136	=136	=136	=136	=136
2DD/]	p	4F#/]	p	4A/]	p	(8a/L	p
.	.	.	.	.	.	8f#/J)	.
.	.	[4F#/	.	[4A/	.	[4d/	.
=137	=137	=137	=137	=137	=137	=137	=137
(8AA/L	.	2F#/_	.	2A/_	.	2d/]	.
8FF#/J)	.	.	.	.	.	.	.
[4DD/	.	.	.	.	.	.	.
=138	=138	=138	=138	=138	=138	=138	=138
2DD/]	pp	4F#/]	pp	4A/]	pp	(8a/L	pp
.	.	.	.	.	.	8f#/J)	.
.	.	[4F#/	.	[4A/	.	[4c/	.
=139	=139	=139	=139	=139	=139	=139	=139
(8C/L	.	2F#;/]	.	2A;/]	.	2c;/]	.
8AA/J)	.	.	.	.	.	.	.
4DD;/	.	.	.	.	.	.	.
=140	=140	=140	=140	=140	=140	=140	=140
4EE-'/	p	4G'/	p	4G'/	p	4B-'/	p
4E-'\	.	4G'/	.	4B-'/	.	4e-'/	.
=141	=141	=141	=141	=141	=141	=141	=141
4.E-\	.	4.G/	.	4.B-/	.	(4.g/	.
8E-\	.	8G/	.	8B-/	.	16fn/LL	.
.	.	.	.	.	.	16e-/JJ)	.
=142	=142	=142	=142	=142	=142	=142	=142
8F#'\L	.	8A-'/L	.	8B-'/L	.	8d'/L	.
8E-'\J	.	8G'/J	.	8B-'/J	.	8e-'/J	.
8D'/L	.	8Fn'/L	.	8B-'/L	.	8fn'/L	.
8C'/J	.	8E-'/J	.	8B-'/J	.	8g'/J	.
=143	=143	=143	=143	=143	=143	=143	=143
8BB-/	.	8D/	.	8B-/	.	8a-/	.
4r	.	4r	.	4r	.	4r	.
8r	.	8r	.	8r	.	8r	.
=144	=144	=144	=144	=144	=144	=144	=144
4B-'\	.	4fn'\	.	4d'/	.	4b-'\	.
4B-'\	.	4d'\	.	4b-'\	.	4ffn'\	.
=145	=145	=145	=145	=145	=145	=145	=145
4.B-\	.	(4.fn\	.	4.b-\	.	(4.aa-\	.
8A-\	.	16e-\LL	.	8b-\	.	16gg\LL	.
.	.	16d\JJ)	.	.	.	16ffn\JJ)	.
=146	=146	=146	=146	=146	=146	=146	=146
8G'\L	.	8g'\L	.	8b-'\L	.	8bb-'\L	.
8c'\J	.	8e-'\J	.	8b-'\J	.	8gg'\J	.
8A-'\L	.	8fn'\L	.	8b-'/L	.	8aa-'\L	.
8B-'\J	.	8d'\J	.	8a-'/J	.	8ffn'\J	.
=147	=147	=147	=147	=147	=147	=147	=147
4E-\	.	4e-\	.	4g/	.	8ee-'\L	.
.	.	.	.	.	.	(16gg\L	.
.	.	.	.	.	.	16ee-\JJ)	.
4r	.	8r	.	8r	.	[4b-\	.
.	.	8e-\	.	8g/	.	.	.
=148	=148	=148	=148	=148	=148	=148	=148
2r	.	4d\	.	4a-/	.	8b-/L]	.
.	.	.	.	.	.	(16b-/L	.
.	.	.	.	.	.	16a/JJ)	.
.	.	8r	.	8r	.	[4b-\	.
.	.	8d'\	.	8a-'/	.	.	.
=149	=149	=149	=149	=149	=149	=149	=149
2r	.	8e-'\L	.	8g'/L	.	8b-\L]	.
.	.	8en'\J	.	8g'/J	.	(16b-\L	.
.	.	.	.	.	.	16cc\JJ)	.
.	.	8fn'\L	.	8c'/L	.	8a-'/L	.
.	.	8d'\J	.	8fn'/J	.	(16a-/L	.
.	.	.	.	.	.	16b-/JJ)	.
=150	=150	=150	=150	=150	=150	=150	=150
2r	.	8e-'\L	.	8B-'/L	.	8g'/L	.
.	.	8c'\J	.	8e-'/J	.	(16g/L	.
.	.	.	.	.	.	16a-/JJ)	.
.	.	8A-'/L	.	8e-'/L	.	8fn'/L	.
.	.	8B-'/J	.	8d'/J	.	(16f/L	.
.	.	.	.	.	.	16g/JJ)	.
=151	=151	=151	=151	=151	=151	=151	=151
4r	.	4E-/	.	4G/	.	8e-'/L	.
.	.	.	.	.	.	(16g/L	.
.	.	.	.	.	.	16e-/JJ)	.
8r	.	8r	.	8r	.	[4B-/	.
(8E-\	.	(8E-/	.	(8G/	.	.	.
=152	=152	=152	=152	=152	=152	=152	=152
4D\)	.	4Fn/)	.	4A-/)	.	8B-/L]	.
.	.	.	.	.	.	16B-/L	.
.	.	.	.	.	.	16A/JJ	.
8r	.	8r	.	8r	.	[4B-/	.
8D\	.	8F/	.	8A-/	.	.	.
=153	=153	=153	=153	=153	=153	=153	=153
4E-\	.	4E-/	.	4G/	.	8B-/L]	.
.	.	.	.	.	.	(16B-/L	.
.	.	.	.	.	.	16A/JJ)	.
8r	.	8r	.	8r	.	[4B-/	.
8E-\	.	8G/	.	8B-/	.	.	.
=154	=154	=154	=154	=154	=154	=154	=154
&(4D-\&)	.	&(4Fn/&)	.	&(4fn/&)	.	8B-/L]	.
.	.	.	.	.	.	(16B-/L	.
.	.	.	.	.	.	16A/JJ)	.
8r	.	8r	.	8r	.	8B-'/L	.
(8D-\	.	(8F/	.	(8f/	.	8Bn'/J	.
=155	=155	=155	=155	=155	=155	=155	=155
4C/)	.	4G/)	.	4en/)	.	8c'/L	.
.	.	.	.	.	.	(16c/L	.
.	.	.	.	.	.	16B/JJ)	.
8r	.	8r	<	8r	<	8c'/L	.
8C'/	<	8Fn'/	<	8cc'\	.	8d'/J	.
=156	=156	=156	=156	=156	=156	=156	=156
4C'/	.	4G'/	.	4cc'\	.	8e-'/L	.
.	.	.	.	.	.	(16e-/L	.
.	.	.	.	.	.	16d/JJ)	.
8r	.	8r	.	8r	.	8e-'/L	.
8BB-'/	.	8G'/	.	8cc'\	.	8en'/J	.
=157	=157	=157	=157	=157	=157	=157	=157
4AA-'/	.	4A-'/	.	4cc'\	.	8fn'/L	.
.	.	.	.	.	.	(16f/L	.
.	.	.	.	.	.	16e/JJ)	.
8r	.	8r	.	8r	.	8f'/L	.
8En\	.	8c\	.	8c/	.	8g'/J	.
=158	=158	=158	=158	=158	=158	=158	=158
8Fn\	.	4fn\	.	4c/	.	8a-'/L	.
8r	.	.	.	.	.	(16a-/L	.
.	.	.	.	.	.	16g/JJ)	.
8r	.	8r	.	8r	.	8a-'/L	.
8E-\	.	8c\	.	8fn/	.	8an'/J	.
=159	=159	=159	=159	=159	=159	=159	=159
4D\	.	4d\	.	4fn/	.	8b-'/L	.
.	.	.	.	.	.	(16b-/L	.
.	.	.	.	.	.	16a/JJ)	.
8r	.	8r	.	8r	.	8b-'\L	.
8Fn\	.	8d\	.	8g/	.	8bn'\J	.
=160	=160	=160	=160	=160	=160	=160	=160
4E-\	.	4e-\	.	4g/	.	8cc'\L	.
.	.	.	.	.	.	(16cc\L	.
.	.	.	.	.	.	16b\JJ)	.
8r	.	8r	.	8r	.	8cc'\L	.
8BBn/	.	8fn\	.	8g/	.	8dd'\J	.
=161	=161	=161	=161	=161	=161	=161	=161
4C/	.	4e-\	.	4g/	.	8ee-'\L	.
.	.	.	.	.	.	(16ee-\L	.
.	.	.	.	.	.	16dd\JJ)	.
8r	.	8r	.	8r	.	8ee-'\L	.
8BB-/	.	8c\	.	8cc\	.	8een'\J	.
=162	=162	=162	=162	=162	=162	=162	=162
4AA/	.	4c\	.	4cc\	.	8ffn'\L	.
.	.	.	.	.	.	(16ff\L	.
.	.	.	.	.	.	16ee\JJ)	.
8r	.	8r	.	8r	.	8ff'\L	.
8AA-/	.	8c\	.	8cc\	.	8ff#'\J	.
=163	=163	=163	=163	=163	=163	=163	=163
8GG/L	f	4B/	f	4b\	f	8gg\L	f
8BBn/J	.	.	.	.	.	16ff#\L	.
.	.	.	.	.	.	16gg\JJ	.
8D\L	.	4B/	.	4d/	.	16bb\LL	.
.	.	.	.	.	.	16gg\	.
8G\J	.	.	.	.	.	16ff#\	.
.	.	.	.	.	.	16gg\JJ	.
=164	=164	=164	=164	=164	=164	=164	=164
8GG/L	.	4r	.	4r	.	16ccc\LL	.
.	.	.	.	.	.	16gg\	.
8C/J	.	.	.	.	.	16ff#\	.
.	.	.	.	.	.	16gg\JJ	.
8E-\L	.	4c\	.	4e-/	.	16ffn\LL	.
.	.	.	.	.	.	16ee-\	.
8G\J	.	.	.	.	.	16dd\	.
.	.	.	.	.	.	16cc\JJ	.
=165	=165	=165	=165	=165	=165	=165	=165
8GG/L	.	4r	.	4r	.	8b/L	.
8BB/J	.	.	.	.	.	16f#/L	.
.	.	.	.	.	.	16g/JJ	.
8D\L	.	4B/	.	4g\ 4dd\	.	16b/LL	.
.	.	.	.	.	.	16g/	.
8G\J	.	.	.	.	.	16f#/	.
.	.	.	.	.	.	16g/JJ	.
=166	=166	=166	=166	=166	=166	=166	=166
8GG/L	.	4r	.	4r	.	16cc/LL	.
.	.	.	.	.	.	16g/	.
8C/J	.	.	.	.	.	16f#/	.
.	.	.	.	.	.	16g/JJ	.
8E-\L	.	4c\	.	4g\ 4ee-\	.	16fn/LL	.
.	.	.	.	.	.	16e-/	.
8G\J	.	.	.	.	.	16d/	.
.	.	.	.	.	.	16c/JJ	.
=167	=167	=167	=167	=167	=167	=167	=167
8GG/L	.	4r	.	4r	.	8G/L	.
8BB/J	.	.	.	.	.	16ff#/L	.
.	.	.	.	.	.	16gg/JJ	.
8D\L	.	4B/	.	4d/	.	16bb\LL	.
.	.	.	.	.	.	16gg\	.
8G\J	.	.	.	.	.	16bb\	.
.	.	.	.	.	.	16gg\JJ	.
=168	=168	=168	=168	=168	=168	=168	=168
8GG/L	.	4r	.	4r	.	16ccc\LL	.
.	.	.	.	.	.	16gg\	.
8C/J	.	.	.	.	.	16ff#\	.
.	.	.	.	.	.	16gg\JJ	.
8E-\L	.	4c\	.	4e-/	.	16ffn\LL	.
.	.	.	.	.	.	16ee-\	.
8G\J	.	.	.	.	.	16dd\	.
.	.	.	.	.	.	16cc\JJ	.
=169	=169	=169	=169	=169	=169	=169	=169
8GG/L	.	4r	.	4r	.	8b/L	.
8BB/J	.	.	.	.	.	16f#/L	.
.	.	.	.	.	.	16g/JJ	.
8D\L	.	4B/	.	4g\ 4dd\	.	16b/LL	.
.	.	.	.	.	.	16g/	.
8G\J	.	.	.	.	.	16b/	.
.	.	.	.	.	.	16g/JJ	.
=170	=170	=170	=170	=170	=170	=170	=170
8GG/L	.	4r	.	4r	.	16cc/LL	.
.	.	.	.	.	.	16g/	.
8C/J	.	.	.	.	.	16f#/	.
.	.	.	.	.	.	16g/JJ	.
8E-\L	.	4c\	.	4g\ 4ee-\	.	16f#/LL	.
.	.	.	.	.	.	16e-/	.
8G\J	.	.	.	.	.	16d/	.
.	.	.	.	.	.	16c/JJ	.
=171	=171	=171	=171	=171	=171	=171	=171
4GG/	.	4B/	p	4g\ 4dd\	.	4G/	p
4r	.	4G/	.	4B/	.	(16b/LL	.
.	.	.	.	.	.	16g/	.
.	.	.	.	.	.	16f#/	.
.	.	.	.	.	.	16g/JJ)	.
=172	=172	=172	=172	=172	=172	=172	=172
2r	.	2r	.	2r	.	(16b/LL	<
.	.	.	.	.	.	16g/	.
.	.	.	.	.	.	16f#/	.
.	.	.	.	.	.	16g/JJ)	.
.	.	.	.	.	.	(16b/LL	.
.	.	.	.	.	.	16g/	.
.	.	.	.	.	.	16f#/	.
.	.	.	.	.	.	16g/JJ)	.
=173	=173	=173	=173	=173	=173	=173	=173
4GG/	.	4r	.	4r	.	(16dd\LL	.
.	.	.	.	.	.	16b\	.
.	.	.	.	.	.	16a#\	.
.	.	.	.	.	.	16b\JJ)	.
4r	.	4B/	.	4d/	.	(16dd\LL	.
.	.	.	.	.	.	16b\	.
.	.	.	.	.	.	16a#\	.
.	.	.	.	.	.	16b\JJ)	.
=174	=174	=174	=174	=174	=174	=174	=174
2r	.	2r	<	2r	<	(16dd\LL	.
.	.	.	.	.	.	16b\	.
.	.	.	.	.	.	16a#\	.
.	.	.	.	.	.	16b\JJ)	.
.	.	.	.	.	.	(16dd\LL	.
.	.	.	.	.	.	16b\	.
.	.	.	.	.	.	16a#\	.
.	.	.	.	.	.	16b\JJ)	.
=175	=175	=175	=175	=175	=175	=175	=175
4GG/	<	4r	.	4r	.	(16ffn\LL	.
.	.	.	.	.	.	16dd\	.
.	.	.	.	.	.	16cc#\	.
.	.	.	.	.	.	16dd\JJ)	.
4r	.	4d\	.	4e#/	.	(16ff\LL	.
.	.	.	.	.	.	16dd\	.
.	.	.	.	.	.	16cc#\	.
.	.	.	.	.	.	16dd\JJ)	.
=176	=176	=176	=176	=176	=176	=176	=176
2r	.	2r	.	2r	.	(16ffn\LL	.
.	.	.	.	.	.	16dd\	.
.	.	.	.	.	.	16cc#\	.
.	.	.	.	.	.	16dd\JJ)	.
.	.	.	.	.	.	(16ff\LL	.
.	.	.	.	.	.	16dd\	.
.	.	.	.	.	.	16cc#\	.
.	.	.	.	.	.	16dd\JJ)	.
=177	=177	=177	=177	=177	=177	=177	=177
2r	.	2r	.	2r	.	(16aa\LL	ff
.	.	.	.	.	.	16ffn\	.
.	.	.	.	.	.	16ee\	.
.	.	.	.	.	.	16ff\JJ)	.
.	.	.	.	.	.	(16aa\LL	.
.	.	.	.	.	.	16gg\	.
.	.	.	.	.	.	16ff\	.
.	.	.	.	.	.	16ee\JJ	.
=178	=178	=178	=178	=178	=178	=178	=178
2r	.	2r	.	2r	.	16dd\LL	.
.	.	.	.	.	.	16cc\	.
.	.	.	.	.	.	16b\	.
.	.	.	.	.	.	16a\JJ	.
.	.	.	.	.	.	16g/LL	.
.	.	.	.	.	.	16f#/	.
.	.	.	.	.	.	16e/	.
.	.	.	.	.	.	16d/JJ)	.
=179	=179	=179	=179	=179	=179	=179	=179
8CC/L	.	8E/L 8G/	.	2r	.	4c'/	.
8C/J	.	8E/J 8G/	.	.	.	.	.
8C/L	.	8E/L 8G/	.	.	.	4c'/	.
8C/J	.	8E/J 8G/	.	.	.	.	.
=180	=180	=180	=180	=180	=180	=180	=180
8C/L	.	8E/L 8G/	.	2r	.	(4.e/	.
8C/J	.	8E/J 8G/	.	.	.	.	.
8C/L	.	8E/L 8G/	.	.	.	.	.
8C/J	.	8E/J 8G/	.	.	.	16d/LL	.
.	.	.	.	.	.	16c/JJ)	.
=181	=181	=181	=181	=181	=181	=181	=181
8C/L	.	8Fn/L 8G/	.	2r	.	8B'/L	.
8C/J	.	8F/J 8G/	.	.	.	8c'/J	.
8C/L	.	8F/L 8G/	.	.	.	8d'/L	.
8C/J	.	8F/J 8G/	.	.	.	8e'/J	.
=182	=182	=182	=182	=182	=182	=182	=182
8C/L	.	8Fn/L 8G/	.	8ffn\L	p	8fn/	.
8C/J	.	8F/J 8G/	.	8ee\J	.	8r	.
8C/L	.	8F/L 8G/	.	8dd\L	.	4r	.
8C/J	.	8F/J 8G/	.	8cc\J	.	.	.
=183	=183	=183	=183	=183	=183	=183	=183
8C/L	.	8Fn/L 8G/	.	4b\	.	4G'/	.
8C/J	.	8F/J 8G/	.	.	.	.	.
8C/L	.	8F/L 8G/	.	4r	.	4d'/	.
8C/J	.	8F/J 8G/	.	.	.	.	.
=184	=184	=184	=184	=184	=184	=184	=184
8C/L	.	8Fn/L 8G/	.	2r	.	(4.fn/	.
8C/J	.	8F/J 8G/	.	.	.	.	.
8C/L	.	8F/L 8G/	.	.	.	.	.
8C/J	.	8F/J 8G/	.	.	.	16e/LL	.
.	.	.	.	.	.	16d/JJ)	.
=185	=185	=185	=185	=185	=185	=185	=185
8C/L	.	8E/L 8G/	.	2r	.	8g'/L	.
8C/J	.	8E/J 8G/	.	.	.	8e'/J	.
8C/L	.	8E/L 8G/	.	.	.	8g'/L	.
8C/J	.	8E/J 8G/	.	.	.	8e'/J	.
=186	=186	=186	=186	=186	=186	=186	=186
8C/L	.	8E/L 8G/	.	8gg'\L	p	8c/	.
8C/J	.	8E/J 8G/	.	8ee'\J	.	4r	.
8C/L	.	8E/L 8G/	.	8gg'\L	.	.	.
8C/J	.	8E/J 8G/	.	8ee'\J	.	8r	.
=187	=187	=187	=187	=187	=187	=187	=187
4GG'/	.	8E/L 8G/	.	4cc'\	.	2r	.
.	.	8G/J 8g/	.	.	.	.	.
4C'/	.	8G\L 8g\	.	4g'/	.	.	.
.	.	8G\J 8g\	.	.	.	.	.
=188	=188	=188	=188	=188	=188	=188	=188
4.E\	.	8G\L 8g\	.	4cc'\	.	2r	.
.	.	8G\J 8g\	.	.	.	.	.
.	.	8G\L 8g\	.	[4ee\	.	.	.
16D/LL	.	8G\J 8g\	.	.	.	.	.
16C/JJ	.	.	.	.	.	.	.
=189	=189	=189	=189	=189	=189	=189	=189
8BB'/L	.	8G\L 8g\	.	(8ee\L]	.	2r	.
8C'/J	.	8G\J 8g\	.	16dd\L	.	.	.
.	.	.	.	16cc\JJ)	.	.	.
8D'\L	.	8G\L 8g\	.	8b\L	.	.	.
8E'\J	.	8G\J 8g\	.	8cc\J	.	.	.
=190	=190	=190	=190	=190	=190	=190	=190
8Fn\	.	8G\L 8g\	.	8dd\L	.	8bb'\L	p
4r	.	8G\J 8g\	.	8ee\	.	8ccc'\J	.
.	.	8G\L 8g\	.	8ffn\J	.	8ddd'\L	.
8r	.	8G\J 8g\	.	8r	.	8eee'\J	.
=191	=191	=191	=191	=191	=191	=191	=191
4GG'/	.	8G\L 8g\	.	4r	.	4fffn\	.
.	.	8G\J 8g\	.	.	.	.	.
4D'\	.	8G\L 8g\	.	4g'/	.	4r	.
.	.	8G\J 8g\	.	.	.	.	.
=192	=192	=192	=192	=192	=192	=192	=192
4.Fn\	.	8G\L 8g\	.	4dd'\	.	2r	.
.	.	8G\J 8g\	.	.	.	.	.
.	.	8G\L 8g\	.	[4ffn\	.	.	.
16E\LL	.	8G\J 8g\	.	.	.	.	.
16D\JJ	.	.	.	.	.	.	.
=193	=193	=193	=193	=193	=193	=193	=193
8C'/L	.	8G\L 8g\	.	(8ffn\L]	.	2r	.
8D'/J	.	8G\J 8g\	.	16ee\L	.	.	.
.	.	.	.	16dd\JJ)	.	.	.
8E'\L	.	8G\L 8g\	.	8cc'\L	.	.	.
8Fn'\J	.	8G\J 8g\	.	8dd'\J	.	.	.
=194	=194	=194	=194	=194	=194	=194	=194
[2G\	.	8G\L 8g\	.	8ee'\L	.	8ccc\L	.
.	.	8G\J 8g\	.	8ffn'\J	.	8ddd\J	.
.	.	8c'\L	.	4gg\	.	8eee\L	.
.	.	8d'\J	.	.	.	8fffn\J	.
=195	=195	=195	=195	=195	=195	=195	=195
8G\L]	.	8e'\L	.	4r	.	[2ggg\	.
8Fn'\J	.	8fn'\J	.	.	.	.	.
8E'\L	.	4g\	.	8gg'\L	.	.	.
8D'\J	.	.	.	8ffn'\J	.	.	.
=196	=196	=196	=196	=196	=196	=196	=196
2C/	.	4r	.	8ee'\L	.	8ggg\L]	.
.	.	.	.	8dd'\J	.	8fffn\J	.
.	.	8A'/L	.	8cc'\	.	8eee\L	.
.	.	8B'/J	.	8r	.	8ddd\J	.
=197	=197	=197	=197	=197	=197	=197	=197
8E'\L	.	8c'\L	.	4r	.	2ccc\	.
8D'\J	.	8d'\J	.	.	.	.	.
8C'/L	.	4e\	.	8ee'\L	.	.	.
8BB'/J	.	.	.	8dd'\J	.	.	.
=198	=198	=198	=198	=198	=198	=198	=198
2AA/	.	4r	.	8cc'\L	.	8eee\L	.
.	.	.	.	8b'\J	.	8ddd\J	.
.	.	8F#'/L	.	8a'/	.	8ccc\L	.
.	.	8G'/J	.	8r	.	8bb\J	.
=199	=199	=199	=199	=199	=199	=199	=199
8C'/L	.	8A'/L	.	4r	.	2aa\	.
8BB'/J	.	8B'/J	.	.	.	.	.
8AA'/L	.	4c\	.	8cc'\L	.	.	.
8GG'/J	.	.	.	8b'\J	.	.	.
=200	=200	=200	=200	=200	=200	=200	=200
2FF#/	ff	4r	.	8a'/L	.	8ccc\L	.
.	.	.	.	8g'/J	.	8bb\J	.
.	.	8D'/L	.	4f#/	.	8aa\L	.
.	.	8E'/J	.	.	.	8gg\J	.
=201	=201	=201	=201	=201	=201	=201	=201
8AA'/L	.	8F#'/L	.	4r	.	2ff#\	.
8GG'/J	.	8G'/J	.	.	.	.	.
8FF#'/L	.	4A/	.	8a'/L	.	.	.
8EE'/J	.	.	.	8g'/J	.	.	.
=202	=202	=202	=202	=202	=202	=202	=202
2DD/	ff	4r	.	8f#'/L	.	8aa\L	.
.	.	.	.	8e'/J	.	8gg\J	.
.	.	8D'/L	.	4d/	.	8ff#\L	.
.	.	8E'/J	.	.	.	8ee\J	.
=203	=203	=203	=203	=203	=203	=203	=203
8DD'/L	ff	8F#'/L	.	2r	.	2dd\	.
8EE'/J	.	8G'/J	.	.	.	.	.
8FF#'/L	.	8A'/L	.	.	.	.	.
8GG'/J	.	8B'/J	.	.	.	.	.
=204	=204	=204	=204	=204	=204	=204	=204
8AA/L	.	[2D/ [2c/	.	2r	.	2r	.
8BB/J	.	.	.	.	.	.	.
8C/L	.	.	.	.	.	.	.
8BB/J	.	.	.	.	.	.	.
=205	=205	=205	=205	=205	=205	=205	=205
8C/L	.	2D/_ 2c/_	.	2r	.	2r	.
8BB/J	.	.	.	.	.	.	.
8AA/L	.	.	.	.	.	.	.
8GG/J	.	.	.	.	.	.	.
=206	=206	=206	=206	=206	=206	=206	=206
8FF#/L	.	4D/] 4c/]	.	2r	.	4dd'\	ff
8EE/J	.	.	.	.	.	.	.
8DD/L	.	8D'/L	.	.	.	4ff#'\	.
8CC#/J	.	8E'/J	.	.	.	.	.
=207	=207	=207	=207	=207	=207	=207	=207
8DD/L	.	8F#'/L	.	2r	.	2aa\	.
8EE/J	.	8G'/J	.	.	.	.	.
8FF#/L	.	8A'/L	.	.	.	.	.
8GG/J	.	8B'/J	.	.	.	.	.
=208	=208	=208	=208	=208	=208	=208	=208
8AA/L	.	[2D/ [2c/	.	2r	.	2r	.
8BB/J	.	.	.	.	.	.	.
8C/L	.	.	.	.	.	.	.
8BB/J	.	.	.	.	.	.	.
=209	=209	=209	=209	=209	=209	=209	=209
8C/L	.	2D/_ 2c/_	.	2r	.	2r	.
8BB/J	.	.	.	.	.	.	.
8AA/L	.	.	.	.	.	.	.
8GG/J	.	.	.	.	.	.	.
=210	=210	=210	=210	=210	=210	=210	=210
8FF#/L	.	4D/] 4c/]	.	4d'/	ff	4ff#'\	.
8EE/J	.	.	.	.	.	.	.
8DD/L	.	8D'/L	.	4f#'/	.	4aa'\	.
8CC#/J	.	8E'/J	.	.	.	.	.
=211	=211	=211	=211	=211	=211	=211	=211
8DD/L	.	8F#'/L	.	2a/	.	2ccc\	.
8EE/J	.	8G'/J	.	.	.	.	.
8FF#/L	.	8A'/L	.	.	.	.	.
8GG/J	.	8B'/J	.	.	.	.	.
=212	=212	=212	=212	=212	=212	=212	=212
8AA/L	.	[2D/ [2c/	.	2r	.	2r	.
8BB/J	.	.	.	.	.	.	.
8C/L	.	.	.	.	.	.	.
8C#/J	.	.	.	.	.	.	.
=213	=213	=213	=213	=213	=213	=213	=213
8D/L	.	2D/_ 2c/_	.	2r	.	2r	.
8C#/J	.	.	.	.	.	.	.
8D/L	.	.	.	.	.	.	.
8C#/J	.	.	.	.	.	.	.
=214	=214	=214	=214	=214	=214	=214	=214
8D/L	.	2D/] 2c/]	.	4f#'/	.	4aa'\	.
8C#/J	.	.	.	.	.	.	.
8D/L	.	.	.	4a'/	.	4ccc'\	.
8C#/J	.	.	.	.	.	.	.
=215	=215	=215	=215	=215	=215	=215	=215
[2D\	p	4F#'/	.	2cc\	.	(4eee-\	p
.	.	4A'/	.	.	.	4ccc\)	.
=216	=216	=216	=216	=216	=216	=216	=216
2D\_	.	(4c\	.	(4e-/	.	2aa\	.
.	.	4A/	.	4c/	.	.	.
=217	=217	=217	=217	=217	=217	=217	=217
2D\_	.	2F#/)	.	2A/)	.	(4ccc\	.
.	.	.	.	.	.	4aa\	.
=218	=218	=218	=218	=218	=218	=218	=218
2D\_	.	(4e-\	.	(4cc\	.	2ff#\)	.
.	.	4c\	.	4a/	.	.	.
=219	=219	=219	=219	=219	=219	=219	=219
2D\_	.	4A/)	.	4f#/)	.	(4ccc\	.
.	.	(4cc\	.	(4ee-\	.	4aa\)	.
=220	=220	=220	=220	=220	=220	=220	=220
2D\_	.	4a\	.	4cc\	.	4ff#\	.
.	.	4f#\	.	4a/	.	4ee-\	.
=221	=221	=221	=221	=221	=221	=221	=221
2D\_	.	4e-\	.	4f#/	.	4cc\	.
.	.	4c\)	.	4e-/)	.	4a/	.
=222	=222	=222	=222	=222	=222	=222	=222
2D\_	.	(4c#\	.	4en/	.	(4b-\	.
.	.	4B-/	.	(4c#/	.	4g/	.
=223	=223	=223	=223	=223	=223	=223	=223
2D\_	.	4A/)	.	4d/)	.	4f#/)	.
.	.	(4ccn\	.	(4ee-\	.	(4aa\	.
=224	=224	=224	=224	=224	=224	=224	=224
2D\_	.	4a\	.	4cc\	.	4ff#\	.
.	.	4f#\	.	4a/	.	4ee-\	.
=225	=225	=225	=225	=225	=225	=225	=225
2D\_	.	4e-\	.	4f#/	.	4cc\	.
.	.	4cn\	.	4e-/	.	4a/	.
=226	=226	=226	=226	=226	=226	=226	=226
2D\_	.	4c#\	.	4en/	.	4b-\	.
.	.	4B-/)	.	4c#/)	.	4g/)	.
=227	=227	=227	=227	=227	=227	=227	=227
2D\]	.	(2A/	.	(2d/	.	(2f#/	.
=228	=228	=228	=228	=228	=228	=228	=228
2E-\	.	2G/)	.	2c#/)	.	2g/)	.
=229	=229	=229	=229	=229	=229	=229	=229
2D\	>	(2A/	>	(2d/	>	(2f#/	>
=230	=230	=230	=230	=230	=230	=230	=230
2E-\	.	2G/)	.	2c#/)	.	2g/)	.
=231	=231	=231	=231	=231	=231	=231	=231
2D\	.	(2A/	.	(2d/	.	(2f#/	.
=232	=232	=232	=232	=232	=232	=232	=232
[2E-\	.	[2G/)	.	[2c#/)	.	[2g/)	.
=233	=233	=233	=233	=233	=233	=233	=233
2E-\_	.	2G/]	.	2c#/]	.	2g/_	.
=234	=234	=234	=234	=234	=234	=234	=234
2E-;\]	pp	2d-;\	pp	2B-;/	pp	2g;/]	pp
=235	=235	=235	=235	=235	=235	=235	=235
4AA-'/	pp	4E-'/	pp	4cn'/	pp	4e-'/	pp
4AA-'/	.	4E-'/	.	4c'/	.	4a-'/	.
=236	=236	=236	=236	=236	=236	=236	=236
4.AA-/	.	4.E-/	.	4.c/	.	(4.cc\	.
8AA-/	.	8E-/	.	8c/	.	16b-/LL	.
.	.	.	.	.	.	16a-/JJ)	.
=237	=237	=237	=237	=237	=237	=237	=237
8BB-'/L	.	8E-'/L	.	8d-'/L	.	8g'/L	.
8BB-'/J	.	8E-'/J	.	8d-'/J	.	8a-'/J	.
8BB-'/L	.	8E-'/L	.	8d-'/L	.	8b-'\L	.
8BB-'/J	.	8E-'/J	.	8d-'/J	.	8cc'\J	.
=238	=238	=238	=238	=238	=238	=238	=238
4BB-/	.	4E-/	.	4d-/	.	8dd-\	.
.	.	.	.	.	.	4r	.
4r	.	4r	.	4r	.	.	.
.	.	.	.	.	.	8r	.
=239	=239	=239	=239	=239	=239	=239	=239
8B-'\L	.	8en'\L	.	8g'/L	.	8g'/L	.
8B-'\J	.	8e'\J	.	8g'/J	.	8a-'/J	.
8B-'\L	.	8e'\L	.	8g'/L	.	8b-'\L	.
8B-'\J	.	8e'\J	.	8g'/J	.	8cc'\J	.
=240	=240	=240	=240	=240	=240	=240	=240
4B-\	.	4e\	.	4g/	.	8cc-\	.
.	.	.	.	.	.	4r	.
4r	.	4r	.	4r	.	.	.
.	.	.	.	.	.	8r	.
=241	=241	=241	=241	=241	=241	=241	=241
8An'\L	.	8e'\L	.	8g'/L	.	8cc#'\L	.
8A'\J	.	8e'\J	.	8g'/J	.	8dd'\J	.
8A'\L	.	8e'\L	.	8g'/L	.	8ee'\L	.
8A'\J	.	8e'\J	.	8g'/J	.	8ff#'\J	.
=242	=242	=242	=242	=242	=242	=242	=242
4A\	.	4e\	.	4g/	.	4gg\	.
4r	.	4r	.	4r	.	4r	.
=243	=243	=243	=243	=243	=243	=243	=243
4A'\	<	4d'\	<	4cc'\	<	4ff#'\	<
4G'\	.	4d'\	.	4b'\	.	4gg'\	.
=244	=244	=244	=244	=244	=244	=244	=244
4F#'\	.	4d'\	.	4a'/	.	4aa'\	.
4E'\	.	4d'\	.	4g'/	.	4bb'\	.
=245	=245	=245	=245	=245	=245	=245	=245
[2D\	.	[2d\	.	[2f#/	.	[2ccc\	.
=246	=246	=246	=246	=246	=246	=246	=246
2D;\]	.	2d;\]	.	2f#;/]	.	2ccc;\]	.
=247	=247	=247	=247	=247	=247	=247	=247
4D'\	p	2r	.	2r	.	2r	.
4G'\	.	.	.	.	.	.	.
=248	=248	=248	=248	=248	=248	=248	=248
(4.B\	.	2r	.	2r	.	2r	.
16A\LL	.	.	.	.	.	.	.
16G\JJ)	.	.	.	.	.	.	.
=249	=249	=249	=249	=249	=249	=249	=249
8F#'\L	.	2r	.	2r	.	4r	p
8G'\J	.	.	.	.	.	.	.
8A'\L	.	.	.	.	.	8f#'/L	.
8B'\J	.	.	.	.	.	8g'/J	.
=250	=250	=250	=250	=250	=250	=250	=250
4c\	.	2r	.	2r	.	8a'/L	.
.	.	.	.	.	.	8b'/J	.
4r	.	.	.	.	.	8cc'\L	.
.	.	.	.	.	.	8cc#'\J	.
=251	=251	=251	=251	=251	=251	=251	=251
4G'\	p	4B'/	p	4d'/	p	8dd\L	.
.	.	.	.	.	.	8ee\J	.
4G'\	.	4B'/	.	4g'/	.	8ff#\L	.
.	.	.	.	.	.	8gg\J	.
=252	=252	=252	=252	=252	=252	=252	=252
(4.E\	.	(4.g\	.	(4.b\	.	8aa\L	.
.	.	.	.	.	.	8aa#\J	.
.	.	.	.	.	.	8bb\L	.
16F#\LL	.	16f#\LL	.	16a/LL	.	8gg\J	.
16G\JJ)	.	16e\JJ)	.	16g/JJ)	.	.	.
=253	=253	=253	=253	=253	=253	=253	=253
8A'\L	.	8d'\L	.	8f#'/L	.	8ff#\L	.
8A'\J	.	8f#'\J	.	8a'/J	.	8aa\J	.
8AA'/L	.	8e'\L	.	8g'/L	.	8gg\L	.
8AA'/J	.	8c#'\J	.	8e'/J	.	8ee\J	.
=254	=254	=254	=254	=254	=254	=254	=254
4D\	.	4d\	.	4f#/	.	8dd/L	.
.	.	.	.	.	.	8f#/J	.
4r	.	4r	.	4r	.	8a/L	.
.	.	.	.	.	.	8d/J	.
=255	=255	=255	=255	=255	=255	=255	=255
4D'\	.	2r	.	2r	.	2r	.
4A'\	.	.	.	.	.	.	.
=256	=256	=256	=256	=256	=256	=256	=256
(4.c\	.	2r	.	2r	.	8r	.
.	.	.	.	.	.	8aa\	.
.	.	.	.	.	.	8ff#\L	.
16B\LL	.	.	.	.	.	8dd#\J	.
16A\JJ)	.	.	.	.	.	.	.
=257	=257	=257	=257	=257	=257	=257	=257
8G\L	.	2r	.	2r	.	8ee\L	.
8G\J	.	.	.	.	.	8gg\J	.
8A\L	.	.	.	.	.	8ff#\L	.
8A#\J	.	.	.	.	.	8ee\J	.
=258	=258	=258	=258	=258	=258	=258	=258
4B\	.	2r	.	2r	.	8dd#\L	.
.	.	.	.	.	.	8cc#\J	.
4r	.	.	.	.	.	8b\L	.
.	.	.	.	.	.	8cc#\J	.
=259	=259	=259	=259	=259	=259	=259	=259
4B'\	.	4d#'\	.	4f#'/	.	8dd#\L	.
.	.	.	.	.	.	8ee\J	.
4B'\	.	4f#'\	.	4a'/	.	8ff#\L	.
.	.	.	.	.	.	8gg\J	.
=260	=260	=260	=260	=260	=260	=260	=260
4.B\	.	(4.a\	.	(4.cc\	.	8aa\L	.
.	.	.	.	.	.	8bb\J	.
.	.	.	.	.	.	8ccc#\L	.
8B\	.	16g\LL	.	16b/LL	.	8ddd#\J	.
.	.	16f#\JJ)	.	16a/JJ)	.	.	.
=261	=261	=261	=261	=261	=261	=261	=261
8e'\L	.	8e'\L	.	8g'/L	.	8eee\L	.
8e'\J	.	8g'\J	.	8b'/J	.	8ggg\J	.
8B'\L	.	8a'\L	.	8cc'\L	.	8fff#\L	.
8B'\J	.	8a'\J	.	8b'\J	.	8ddd#\J	.
=262	=262	=262	=262	=262	=262	=262	=262
4G\	.	4g\	.	4b\	.	8eee\L	.
.	.	.	.	.	.	8gg\J	.
4r	.	4r	.	4r	.	8bb\L	.
.	.	.	.	.	.	8ee\J	.
=263	=263	=263	=263	=263	=263	=263	=263
2GG/	.	2D/	.	(4fn/	.	8ffn\L	.
.	.	.	.	.	.	8b\J	.
.	.	.	.	16e/LL	.	8dd/L	.
.	.	.	.	16d/	.	.	.
.	.	.	.	16c/	.	8fn/J	.
.	.	.	.	16B/JJ)	.	.	.
=264	=264	=264	=264	=264	=264	=264	=264
4C/	.	4E/	.	(16c/LL	.	8e/L	.
.	.	.	.	16B/	.	.	.
.	.	.	.	16c/	.	8cc/J	.
.	.	.	.	16d/JJ	.	.	.
4r	.	4r	.	8e/)	.	8g\L	.
.	.	.	.	8r	.	8ee\J	.
=265	=265	=265	=265	=265	=265	=265	=265
[2D\	<	[2F#/	<	(4.cc\	<	8ccc\L	<
.	.	.	.	.	.	8ff#\J	.
.	.	.	.	.	.	8aa\L	.
.	.	.	.	16a/LL	.	8cc\J	.
.	.	.	.	16f#/JJ)	.	.	.
=266	=266	=266	=266	=266	=266	=266	=266
8D/L]	.	8F#/L]	.	8d'/L	.	8ff#\L	.
8C'/J	.	8D'/J	.	8d'/J	.	8a\J	.
8BB'/L	.	8d'\L	.	8d'/L	.	8cc/L	.
8AA'/J	.	8c'\J	.	8d'/J	.	8f#/J	.
=267	=267	=267	=267	=267	=267	=267	=267
8GG/L	f	8B/L	f	4d'/	f	4dd'\	f
8G/J	.	8B/J	.	.	.	.	.
8G\L	.	8B/L	.	4g'/	.	4gg'\	.
8G\J	.	8B/J	.	.	.	.	.
=268	=268	=268	=268	=268	=268	=268	=268
8G\L	.	8B/L	.	(4.b\	.	(4.bb\	.
8G\J	.	8B/J	.	.	.	.	.
8G\L	.	8B/L	.	.	.	.	.
8G\J	.	8B/J	.	16a/LL	.	16aa\LL	.
.	.	.	.	16g/JJ)	.	16gg\JJ)	.
=269	=269	=269	=269	=269	=269	=269	=269
8A\L	.	8c/L	.	8f#'/L	.	8ff#'\L	.
8G\J	.	8B/J	.	8g'/J	.	8gg'\J	.
8F#\L	.	8A/L	.	8a'/L	.	8aa'\L	.
8E\J	.	8G/J	.	8b'/J	.	8bb'\J	.
=270	=270	=270	=270	=270	=270	=270	=270
(16D\LL	.	(16F#/LL	.	4cc\	.	4ccc\	.
16F#\	.	16A/	.	.	.	.	.
16A\	.	16d/	.	.	.	.	.
16d\JJ	.	16f#/JJ	.	.	.	.	.
16f#\LL	.	16a\LL	.	4r	.	4r	.
16d\	.	16f#\	.	.	.	.	.
16A\	.	16d\	.	.	.	.	.
16F#\JJ)	.	16A\JJ)	.	.	.	.	.
=271	=271	=271	=271	=271	=271	=271	=271
8D\L	.	8F#/L	.	4d'/	.	4dd'\	.
8D\J	.	8F#/J	.	.	.	.	.
8D\L	.	8F#/L	.	4a'/	.	4aa'\	.
8D\J	.	8F#/J	.	.	.	.	.
=272	=272	=272	=272	=272	=272	=272	=272
8D\L	.	8F#/L	.	(4.cc\	.	(4.ccc\	.
8D\J	.	8F#/J	.	.	.	.	.
8D/L	.	8F#/L	.	.	.	.	.
8C/J	.	8F#/J	.	16b/LL	.	16bb\LL	.
.	.	.	.	16a/JJ)	.	16aa\JJ)	.
=273	=273	=273	=273	=273	=273	=273	=273
8BB/L	.	8G\L	.	8dd'\L	.	8ddd'\L	.
8E/J	.	8g\J	.	8b'\J	.	8bb'\J	.
8D\L	.	8a\L	.	8cc'\L	.	8ccc'\L	.
8D\J	.	8f#\J	.	8a'\J	.	8aa'\J	.
=274	=274	=274	=274	=274	=274	=274	=274
4GG/	.	4B/	p	4g/	p	8gg'\L	p
.	.	.	.	.	.	(16bb\L	.
.	.	.	.	.	.	16gg\JJ)	.
4r	.	8r	.	8r	.	[4dd\	.
.	.	(8g\	.	(8b\	.	.	.
=275	=275	=275	=275	=275	=275	=275	=275
2r	.	4f#\)	.	4cc\)	.	8dd\L]	.
.	.	.	.	.	.	(16dd\L	.
.	.	.	.	.	.	16cc#\JJ)	.
.	.	8r	.	8r	.	[4dd\	.
.	.	8f#\	.	8cc\	.	.	.
=276	=276	=276	=276	=276	=276	=276	=276
2r	.	8g'\L	.	8b'\L	.	8dd\L]	.
.	.	8fn'\J	.	8b'\J	.	(16dd\L	.
.	.	.	.	.	.	16ee\JJ)	.
.	.	8e'\L	.	8g'/L	.	8ccn\L	.
.	.	8f#'\J	.	8a'/J	.	(16cc\L	.
.	.	.	.	.	.	16dd\JJ)	.
=277	=277	=277	=277	=277	=277	=277	=277
2r	.	8g'\L	.	8b'/L	.	8b\L	.
.	.	8e'\J	.	8g'/J	.	(16b\L	.
.	.	.	.	.	.	16cc\JJ)	.
.	.	8c'\L	.	8e'/L	.	8a/L	.
.	.	8d'\J	.	8f#'/J	.	(16a/L	.
.	.	.	.	.	.	16b/JJ)	.
=278	=278	=278	=278	=278	=278	=278	=278
4GG/	p	4G/	.	4B/	.	8g/L	.
.	.	.	.	.	.	(16b/L	.
.	.	.	.	.	.	16g/JJ)	.
8r	.	8r	.	8r	.	[4d/	.
(8G\	.	(8G/	.	(8B/	.	.	.
=279	=279	=279	=279	=279	=279	=279	=279
4F#\)	.	4A/)	.	4c/)	.	8d/L]	.
.	.	.	.	.	.	(16d/L	.
.	.	.	.	.	.	16c#/JJ)	.
8r	.	8r	.	8r	.	[4d/	.
(8F#\	.	(8A/	.	(8c/	.	.	.
=280	=280	=280	=280	=280	=280	=280	=280
8GG/L)	<	8G/L)	<	8B/L)	<	8d/L]	<
8G/J	.	8B/J	.	8d/J	.	(16d/L	.
.	.	.	.	.	.	16c#/JJ	.
8G\L	.	8B/L	.	8d/L	.	16d/LL	.
.	.	.	.	.	.	16cn/	.
8G\J	.	8B/J	.	8d/J	.	16B/	.
.	.	.	.	.	.	16A/JJ)	.
=281	=281	=281	=281	=281	=281	=281	=281
8EE/L	.	8B/L	.	8g/L	.	8G'/L	.
8E/J	.	8A/J	.	8g/J	.	(16g/L	.
.	.	.	.	.	.	16f#/JJ	.
8E\L	.	8A/L	.	8g/L	.	16g/LL	.
.	.	.	.	.	.	16a/	.
8E\J	.	8A/J	.	8g/J	.	16b/	.
.	.	.	.	.	.	16cc#/JJ)	.
=282	=282	=282	=282	=282	=282	=282	=282
4D\	f	4A/	f	4f#/	f	8dd'\L	f
.	.	.	.	.	.	(16dd\L	.
.	.	.	.	.	.	16cc#\JJ	.
4r	.	4r	.	4r	.	16dd\LL	.
.	.	.	.	.	.	16ee\	.
.	.	.	.	.	.	16ff#\	.
.	.	.	.	.	.	16dd\JJ)	.
=283	=283	=283	=283	=283	=283	=283	=283
2r	.	2r	.	2r	.	8gg'\L	.
.	.	.	.	.	.	(16gg\L	.
.	.	.	.	.	.	16ff#\JJ	.
.	.	.	.	.	.	16gg\LL	.
.	.	.	.	.	.	16aa\	.
.	.	.	.	.	.	16bb\	.
.	.	.	.	.	.	16ccc#\JJ)	.
=284	=284	=284	=284	=284	=284	=284	=284
4DD'/	ff	8r	ff	8r	.	4ddd\	.
.	.	8G/	.	8B-/ 8d/	.	.	.
4GG'/	.	8G/L	.	8B-/L 8d/	.	4r	.
.	.	8G/J	.	8B-/J 8d/	.	.	.
=285	=285	=285	=285	=285	=285	=285	=285
(4.BB-/	.	8G/L	.	8B-/L 8d/	.	2r	.
.	.	8G/J	.	8B-/J 8d/	.	.	.
.	.	8G/L	.	8B-/L 8d/	.	.	.
16AA/LL	.	8G/J	.	8B-/J 8d/	.	.	.
16GG/JJ)	.	.	.	.	.	.	.
=286	=286	=286	=286	=286	=286	=286	=286
8FF#'/L	.	8A/L	.	8c/L 8d/	.	[2dd\	ff
8GG'/J	.	8A/J	.	8c/J 8d/	.	.	.
8AA'/L	.	8A/L	.	8c/L 8d/	.	.	.
8BB-'/J	.	8A/J	.	8c/J 8d/	.	.	.
=287	=287	=287	=287	=287	=287	=287	=287
4C/	.	8A/L	.	8c/L 8d/	.	8dd\L]	.
.	.	8A/J	.	8c/J 8d/	.	(8ee-\J	.
4r	.	8A/L	.	8c/L 8d/	.	8dd\L	.
.	.	8A/J	.	8c/J 8d/	.	8ee-\J)	.
=288	=288	=288	=288	=288	=288	=288	=288
4DD/	.	8F#/L	.	8A/L 8d/	.	4dd\	.
.	.	8F#/J	.	8A/J 8d/	.	.	.
4AA'/	.	8F#/L	.	8A/L 8d/	.	4r	.
.	.	8F#/J	.	8A/J 8d/	.	.	.
=289	=289	=289	=289	=289	=289	=289	=289
(4.C/	.	8F#/L	.	8A/L 8d/	.	2r	.
.	.	8F#/J	.	8A/J 8d/	.	.	.
.	.	8F#/L	.	8A/L 8d/	.	.	.
16BB-/LL	.	8F#/J	.	8A/J 8d/	.	.	.
16AA/JJ)	.	.	.	.	.	.	.
=290	=290	=290	=290	=290	=290	=290	=290
8GG'/L	.	8G/L	.	8B-/L 8d/	.	[2gg\	.
8AA'/J	.	8G/J	.	8B-/J 8d/	.	.	.
8BB-'/L	.	8G/L	.	8B-/L 8d/	.	.	.
8C'/J	.	8G/J	.	8B-/J 8d/	.	.	.
=291	=291	=291	=291	=291	=291	=291	=291
4D\	.	8G/L	.	8B-/L 8d/	.	(8gg\L]	.
.	.	8G/J	.	8B-/J 8d/	.	8ff#\J	.
4r	.	8G/L	.	8B-/L 8d/	.	8gg\L	.
.	.	8G/J	.	8B-/J 8d/	.	8ff#\J)	.
=292	=292	=292	=292	=292	=292	=292	=292
8E-\L	.	8G/L	.	8B-/L 8g/	.	4gg\	.
8Fn\J	.	8e-/J	.	8B-/J 8g/	.	.	.
8G\L	.	8e-\L	.	8B-/L 8g/	.	[4bb-\	.
8A-\J	.	8e-\J	.	8B-/J 8g/	.	.	.
=293	=293	=293	=293	=293	=293	=293	=293
4B-\	.	8e-\L	.	8B-/L 8g/	.	(8bb-\L]	.
.	.	8e-\J	.	8B-/J 8g/	.	8aa\J	.
4r	.	8e-\L	.	8B-/L 8g/	.	8bb-\L	.
.	.	8e-\J	.	8B-/J 8g/	.	8aa\J)	.
=294	=294	=294	=294	=294	=294	=294	=294
8C#'/L	.	8en'\L	.	8B-/ 8g/	.	4bb-\	.
8D'/J	.	8d'\J	.	8r	.	.	.
8En'\L	.	8e'\L	.	[4g/	.	[4b-\	.
8F#'\J	.	8f#'\J	.	.	.	.	.
=295	=295	=295	=295	=295	=295	=295	=295
4G\	.	4g\	.	(8g/L]	.	(8b-/L]	.
.	.	.	.	8f#/J)	.	8a/J)	.
4C#/	.	4c#\	.	8g'/L	.	8b-'\L	.
.	.	.	.	8g'/J	.	8b-'\J	.
=296	=296	=296	=296	=296	=296	=296	=296
4D\	.	4d\	.	4f#/	.	8a/L	.
.	.	.	.	.	.	8d/J	.
8r	.	8r	.	8r	.	[4dd\	.
8D'\	.	8d'\	.	8f#'/	.	.	.
=297	=297	=297	=297	=297	=297	=297	=297
4DD'/	.	4c#'\	.	4G'/	.	8dd/L]	.
.	.	.	.	.	.	8e/J	.
8r	.	8r	.	8r	.	[4ee\	.
8D'\	.	8c#'\	.	8g'/	.	.	.
=298	=298	=298	=298	=298	=298	=298	=298
4DD'/	.	4cn'\	.	4A'/	.	8ee\L]	.
.	.	.	.	.	.	8f#\J	.
8r	.	8r	.	8r	.	[4ff#\	.
8D'\	.	8c'\	.	8a'/	.	.	.
=299	=299	=299	=299	=299	=299	=299	=299
4DD'/	.	4B'/	.	4B'/	.	8ff#\L]	.
.	.	.	.	.	.	8g\J	.
8r	.	8r	.	8r	.	[4gg\	.
8D'\	.	8B'/	.	8b'\	.	.	.
=300	=300	=300	=300	=300	=300	=300	=300
4DD'/	.	4F#'/	.	4c'/	.	8gg\L]	.
.	.	.	.	.	.	(8a\J	.
4r	.	4r	.	4r	.	8aa'\L)	.
.	.	.	.	.	.	8gg'\J	>
=301	=301	=301	=301	=301	=301	=301	=301
2r	.	2r	p	2r	.	8ff#'\L	.
.	.	.	.	.	.	8ee'\J	.
.	.	.	.	.	.	8dd'\L	.
.	.	.	.	.	.	8cc'\J	.
=302	=302	=302	=302	=302	=302	=302	=302
2r	.	2r	.	8G'/L	.	8b\	p
.	.	.	.	8B'/J	.	4b\	.
.	.	.	.	8d'/L	.	.	.
.	.	.	.	8f#'/J	.	[8b\	.
=303	=303	=303	=303	=303	=303	=303	=303
2r	.	2r	.	8g'/L	.	8b\L]	.
.	.	.	.	8f#'/J	.	8b\J	.
.	.	.	.	8g'/L	.	(16cc\LL	.
.	.	.	.	.	.	16b\	.
.	.	.	.	8e'/J	.	16a\	.
.	.	.	.	.	.	16b\JJ)	.
=304	=304	=304	=304	=304	=304	=304	=304
2r	.	2r	.	8c'/	.	(8cc\L	.
.	.	.	.	8r	.	8a\J	.
.	.	.	.	8c#'/	.	8b/L	.
.	.	.	.	8r	.	8g/J)	.
=305	=305	=305	=305	=305	=305	=305	=305
2r	.	2r	.	4d'/	.	(8g/L	.
.	.	.	.	.	.	8f#/J	.
.	.	.	.	4r	.	8e/L	.
.	.	.	.	.	.	8d/J)	.
=306	=306	=306	=306	=306	=306	=306	=306
2r	.	8G'/L	p	8B'/L	.	8dd\	.
.	.	8B'/J	.	8d'/J	.	4dd\	.
.	.	8d'\L	.	8g'/L	.	.	.
.	.	8f#'\J	.	8a'/J	.	[8dd\	.
=307	=307	=307	=307	=307	=307	=307	=307
2r	.	8g'\L	.	8b'/L	.	8dd\L]	.
.	.	8f#'\J	.	8a'/J	.	8dd'\J	.
.	.	8g'\L	.	8b'/L	.	16ee\LL	.
.	.	.	.	.	.	16dd\	.
.	.	8e'\J	.	8g'/J	.	16cc#\	.
.	.	.	.	.	.	16dd\JJ	.
=308	=308	=308	=308	=308	=308	=308	=308
2r	.	8c'/L	.	8e'/L	.	8ee'\L	.
.	.	8A'/J	.	8e'/J	.	8ccn'\J	.
.	.	8d'/L	.	8c'/L	.	8a'/L	.
.	.	8D'/J	.	8A'/J	.	8f#'/J	.
=309	=309	=309	=309	=309	=309	=309	=309
2r	.	4G/	.	16B/LL	.	4g/	.
.	.	.	.	(16b/	.	.	.
.	.	.	.	16a/	.	.	.
.	.	.	.	16g/JJ	.	.	.
.	.	4r	.	16f#/LL	.	4r	.
.	.	.	.	16e/	.	.	.
.	.	.	.	16d/	.	.	.
.	.	.	.	16c/JJ)	.	.	.
=310	=310	=310	=310	=310	=310	=310	=310
8GG'/L	p	2r	.	8B'/	.	2r	.
8BB'/J	.	.	.	4B/	.	.	.
8D'\L	.	.	.	.	.	.	.
8F#'\J	.	.	.	[8B'/	.	.	.
=311	=311	=311	=311	=311	=311	=311	=311
8G'\L	.	2r	.	8B/L]	.	2r	.
8F#'\J	.	.	.	8B'/J	.	.	.
8G'\L	.	.	.	(16c/LL	.	.	.
.	.	.	.	16B/	.	.	.
8G'\J	.	.	.	16A/	.	.	.
.	.	.	.	16B/JJ)	.	.	.
=312	=312	=312	=312	=312	=312	=312	=312
4A\	.	8A'/L	.	4c/	.	8ccc'\L	.
.	.	8c'/J	.	.	.	8aa'\J	.
4r	.	8f#'\L	.	4r	.	8ff#'\L	.
.	.	8g'\J	.	.	.	8cc'\J	.
=313	=313	=313	=313	=313	=313	=313	=313
2r	.	8a\L	.	2r	.	8cc\L	.
.	.	8A\J	.	.	.	8cc\J	.
.	.	8A/L	.	.	.	(16dd\LL	.
.	.	.	.	.	.	16cc\	.
.	.	8A/J	.	.	.	16b\	.
.	.	.	.	.	.	16cc\JJ)	.
=314	=314	=314	=314	=314	=314	=314	=314
8BB/L	.	4B/	.	8d/	.	4dd\	.
8D/J	.	.	.	4d/	.	.	.
8G\L	.	4r	.	.	.	4r	.
8A\J	.	.	.	[8d/	.	.	.
=315	=315	=315	=315	=315	=315	=315	=315
8B\L	.	2r	.	8d/L]	.	2r	.
8A#\J	.	.	.	8d/J	.	.	.
8B\L	.	.	.	(16e/LL	.	.	.
.	.	.	.	16d/	.	.	.
8B\J	.	.	.	16c/	.	.	.
.	.	.	.	16d/JJ)	.	.	.
=316	=316	=316	=316	=316	=316	=316	=316
4c\	.	8C'/L	.	4e/	.	8ee'\L	.
.	.	8E'/J	.	.	.	8cc'\J	.
4r	.	8G'/L	.	4r	.	8g'/L	.
.	.	8B'/J	.	.	.	8e'/J	.
=317	=317	=317	=317	=317	=317	=317	=317
2r	.	8c\L	.	2r	.	8e/L	.
.	.	8c\J	.	.	.	8e/J	.
.	.	8c\L	.	.	.	(16f#/LL	.
.	.	.	.	.	.	16e/	.
.	.	8c\J	.	.	.	16d#/	.
.	.	.	.	.	.	16e/JJ)	.
=318	=318	=318	=318	=318	=318	=318	=318
4D\	.	4c\	.	4r	.	8f#/L	.
.	.	.	.	.	.	8f#/J	.
4r	.	4A/	.	4c/	.	(16g/LL	.
.	.	.	.	.	.	16f#/	.
.	.	.	.	.	.	16e/	.
.	.	.	.	.	.	16f#/JJ)	.
=319	=319	=319	=319	=319	=319	=319	=319
4D\	.	4r	.	4r	.	8g/L	.
.	.	.	.	.	.	8g/J	.
4r	.	4G/	.	4B/	.	(16a/LL	.
.	.	.	.	.	.	16g/	.
.	.	.	.	.	.	16f#/	.
.	.	.	.	.	.	16g/JJ)	.
=320	=320	=320	=320	=320	=320	=320	=320
4D\	.	4r	.	4r	.	8a/L	.
.	.	.	.	.	.	8a/J	.
4r	.	4F#/	.	4A/	.	(16b/LL	.
.	.	.	.	.	.	16a/	.
.	.	.	.	.	.	16g#/	.
.	.	.	.	.	.	16a/JJ)	.
=321	=321	=321	=321	=321	=321	=321	=321
4D\	.	4r	.	4r	.	8b\L	.
.	.	.	.	.	.	8b\J	.
4r	.	4E/	.	4g/	.	(16cc\LL	.
.	.	.	.	.	.	16b\	.
.	.	.	.	.	.	16a\	.
.	.	.	.	.	.	16b\JJ)	.
=322	=322	=322	=322	=322	=322	=322	=322
2DD/	p	2D/	p	4f#/	p	(4cc\	p
.	.	.	.	4r	.	4a/	.
=323	=323	=323	=323	=323	=323	=323	=323
(4EE-/	.	(4E-/	.	(4c/	.	2f#/)	.
4CC/)	.	4C/)	.	4A/)	.	.	.
=324	=324	=324	=324	=324	=324	=324	=324
2DD/	.	2D/	.	2f#/	.	(4ff#\	.
.	.	.	.	.	.	4cc\	.
=325	=325	=325	=325	=325	=325	=325	=325
(4EE-/	.	(4E-/	.	(4c/	.	2a/)	.
4CC/	.	4C/	.	4A/	.	.	.
=326	=326	=326	=326	=326	=326	=326	=326
2DD/)	.	2D/)	.	2f#/)	.	(4aa\	.
.	.	.	.	.	.	4ff#\	.
=327	=327	=327	=327	=327	=327	=327	=327
(4DD-/	.	(4E-/	.	(4c/	.	2cc\)	.
4CC/	.	4C/	.	4A/	.	.	.
=328	=328	=328	=328	=328	=328	=328	=328
2DD/)	.	2D/)	.	2f#/)	.	(4ccc\	.
.	.	.	.	.	.	4aa\	.
=329	=329	=329	=329	=329	=329	=329	=329
(4EE-/	.	(4E-/	.	(4c/	.	2ff#\)	.
4CC/)	.	4C/)	.	4A/)	.	.	.
=330	=330	=330	=330	=330	=330	=330	=330
(8CC#/L	.	(8C#/L	.	[2B-/ [2g/	.	(8bb-\L	.
8EE/J	<	8E/J	<	.	.	8gg\J	<
8GG/L	.	8G/L	.	.	.	8ee\L	.
8BB-/J	.	8B-/J	.	.	.	8cc#\J	.
=331	=331	=331	=331	=331	=331	=331	=331
8C#\L	.	8c#\L	.	8B-/L] 8g/]	<	8b-/L	.
8E\J	.	8e\J	.	8B-/J 8g/	.	8g/J	.
8G\L	.	8g\L	.	8B-/L 8g/	.	8e/L	.
8E\J)	.	8e\J)	.	8B-/J 8g/	.	8c#/J)	.
=332	=332	=332	=332	=332	=332	=332	=332
8D\L	f	8d/L	f	8B/L 8gn/	f	(4.d/	f
8D\J	.	8G/J	.	8B/J	.	.	.
8D\L	.	8G/L	.	8B/L	.	.	.
8D\J	.	8G/J	.	8B/J	.	16Bn/LL	.
.	.	.	.	.	.	16G/JJ)	.
=333	=333	=333	=333	=333	=333	=333	=333
8D\L	.	8F#/L	.	8c/L	.	2A/	.
8D\J	.	8F#/J	.	8c/J	.	.	.
8D\L	.	8F#/L	.	8c/L	.	.	.
8D\J	.	8F#/J	.	8c/J	.	.	.
=334	=334	=334	=334	=334	=334	=334	=334
2d\	p	2r	.	2r	.	(4cc\	p
.	.	.	.	.	.	4a/	.
=335	=335	=335	=335	=335	=335	=335	=335
(4e-\	.	(4cc\	p	2r	.	2f#/)	.
4c\)	.	4a\)	.	.	.	.	.
=336	=336	=336	=336	=336	=336	=336	=336
2d\	.	2r	.	(4cc\	p	(4ff#\	.
.	.	.	.	4a/)	.	4cc\	.
=337	=337	=337	=337	=337	=337	=337	=337
(4e-\	.	(4cc\	.	2r	.	2a/)	.
4c\	.	4a\)	.	.	.	.	.
=338	=338	=338	=338	=338	=338	=338	=338
2d\)	.	2r	.	(4cc\	.	(4aa\	.
.	.	.	.	4a/)	.	4ff#\	.
=339	=339	=339	=339	=339	=339	=339	=339
(4e-\	.	(4cc\	.	2r	.	2cc\)	.
4c\	.	4a\)	.	.	.	.	.
=340	=340	=340	=340	=340	=340	=340	=340
4d\)	pp	2r	.	2r	.	(8ccc\L	pp
.	.	.	.	.	.	8aa\J	.
(8e-\L	.	.	.	.	.	4ff#\	.
8c\J	.	.	.	.	.	.	.
=341	=341	=341	=341	=341	=341	=341	=341
4A\)	.	4c\	pp	2r	.	8eee-\L	.
.	.	.	.	.	.	8ccc\J	.
(8c\L	.	(8e-\L	.	.	.	4aa\)	.
8A\J)	.	8c\J)	.	.	.	.	.
=342	=342	=342	=342	=342	=342	=342	=342
2Fn\	.	2A/	pp	(8c/L	.	(2eee-\	.
.	.	.	.	8fn/J	.	.	.
.	.	.	.	8c/L	.	.	.
.	.	.	.	8f/J)	.	.	.
=343	=343	=343	=343	=343	=343	=343	=343
[2E#\	.	2B-/	.	(8d/L	.	8ddd\L	.
.	.	.	.	8fn/J	.	8ccc#\J	.
.	.	.	.	8d/L	.	8ddd\L	.
.	.	.	.	8f/J)	.	8bb-\J)	.
=344	=344	=344	=344	=344	=344	=344	=344
2E#\_	.	2c\	.	(8e-/L	.	4aa'\	.
.	.	.	.	8fn/J	.	.	.
.	.	.	.	8e-/L	.	4aa'\	.
.	.	.	.	8f/J)	.	.	.
=345	=345	=345	=345	=345	=345	=345	=345
2E#\_	.	2B-/	.	(8d/L	.	(4.bb-\	.
.	.	.	.	8fn/J	.	.	.
.	.	.	.	8d/L	.	.	.
.	.	.	.	8f/J)	.	16cccn\LL	.
.	.	.	.	.	.	16ddd\JJ)	.
=346	=346	=346	=346	=346	=346	=346	=346
2E#\_	.	2A/	.	(8c/L	.	(2eee-\	.
.	.	.	.	8fn/J	.	.	.
.	.	.	.	8c/L	.	.	.
.	.	.	.	8f/J)	.	.	.
=347	=347	=347	=347	=347	=347	=347	=347
2E#\_	.	2B-/	.	(8d/L	.	8ddd\L	.
.	.	.	.	8fn/J	.	8ccc#\J	.
.	.	.	.	8d/L	.	8ddd\L	.
.	.	.	.	8f/J)	.	8bb-\J)	.
=348	=348	=348	=348	=348	=348	=348	=348
2E#\]	.	2c\	.	8e-/L	.	4aa'\	.
.	.	.	.	8fn/J	.	.	.
.	.	.	.	8e-/L	.	4aa'\	.
.	.	.	.	8f/J	.	.	.
=349	=349	=349	=349	=349	=349	=349	=349
[2BB-/	.	2B-/	.	8d/L	.	(4.bb-\	.
.	.	.	.	8fn/J	.	.	.
.	.	.	.	8d/L	.	.	.
.	.	.	.	8f/J	.	8aa\)	.
=350	=350	=350	=350	=350	=350	=350	=350
8BB-\L]	<	8B-\L	<	8d/L	<	[2gg#\	<
8B-\J	.	8d\J	.	8fn/J	.	.	.
8B-\L	.	8d\L	.	8f/L	.	.	.
8B-\J	.	8d\J	.	8f/J	.	.	.
=351	=351	=351	=351	=351	=351	=351	=351
8B-\L	.	8d\L	.	8fn/L	.	2gg#\]	.
8B-\J	.	8d\J	.	8f/J	.	.	.
8B-\L	.	8d\L	.	8f/L	.	.	.
8B-\J	.	8d\J	.	8f/J	.	.	.
=352	=352	=352	=352	=352	=352	=352	=352
8A\L	.	8d\L	.	8f#/L	.	(4.aa\	.
8A\J	.	8d\J	.	8f#/J	.	.	.
8A\L	.	8d\L	.	8f#/L	.	.	.
8A\J	.	8d\J	.	8f#/J	.	16ff#\LL	.
.	.	.	.	.	.	16dd\JJ)	.
=353	=353	=353	=353	=353	=353	=353	=353
8A\L	.	8c#\L	.	8g/L	.	2ee\	.
8A\J	.	8c#\J	.	8g/J	.	.	.
8A\L	.	8c#\L	.	8g/L	.	.	.
8A\J	.	8c#\J	.	8g/J	.	.	.
=354	=354	=354	=354	=354	=354	=354	=354
8D\L	f	8c/L	f	8a/L	f	[2ff#\	f
8D\J	.	8A/J	.	8c/J	.	.	.
8D\L	.	8A/L	.	8c/L	.	.	.
8D\J	.	8A/J	.	8c/J	.	.	.
=355	=355	=355	=355	=355	=355	=355	=355
8D#\L	.	8A/L	.	8c/L	.	2ff#\]	.
8D#\J	.	8A/J	.	8c/J	.	.	.
8D#\L	.	8A/L	.	8c/L	.	.	.
8D#\J	.	8A/J	.	8c/J	.	.	.
=356	=356	=356	=356	=356	=356	=356	=356
8E\L	ff	8G/L	ff	8B/L	ff	4gg\	ff
8E\J	.	8G/J	.	8B/J	.	.	.
8C#/L	.	8e\L	.	8e/L	.	4aa\	.
8C#/J	.	8e\J	.	8e/J	.	.	.
=357	=357	=357	=357	=357	=357	=357	=357
8D\L	.	8d\L	.	8g/L	.	4bb\	.
8D\J	.	8d\J	.	8g/J	.	.	.
8DD/L	.	8c\L	.	8f#/L	.	4aa\	.
8DD/J	.	8c\J	.	8f#/J	.	.	.
=358	=358	=358	=358	=358	=358	=358	=358
(16GG/LL	.	4B/	.	4g'/	.	4gg'\	.
16AA/	.	.	.	.	.	.	.
16BB/	.	.	.	.	.	.	.
16C/JJ	.	.	.	.	.	.	.
16D/LL	.	4r	.	4g'/	.	4r	.
16C/	.	.	.	.	.	.	.
16BB/	.	.	.	.	.	.	.
16AA/JJ	.	.	.	.	.	.	.
=359	=359	=359	=359	=359	=359	=359	=359
16GG/LL	.	2r	.	(4.b\	.	2r	.
16AA/	.	.	.	.	.	.	.
16BB/	.	.	.	.	.	.	.
16C/JJ	.	.	.	.	.	.	.
16D\LL	.	.	.	.	.	.	.
16E\	.	.	.	.	.	.	.
16F#\	.	.	.	16a/LL	.	.	.
16G\JJ)	.	.	.	16g/JJ)	.	.	.
=360	=360	=360	=360	=360	=360	=360	=360
8GG/L	.	8c\L	.	(16f#/LL	.	4dd'\	.
.	.	.	.	16g/	.	.	.
8G/J	.	8c\J	.	16a/	.	.	.
.	.	.	.	16b/JJ	.	.	.
8G\L	.	8c\L	.	16cc/LL	.	4aa\	.
.	.	.	.	16b/	.	.	.
8G\J	.	8c\J	.	16a/	.	.	.
.	.	.	.	16g/JJ	.	.	.
=361	=361	=361	=361	=361	=361	=361	=361
8G\L	.	8c\L	.	16f#/LL	.	(4.ccc\	.
.	.	.	.	16g/	.	.	.
8G\J	.	8c\J	.	16a/	.	.	.
.	.	.	.	16g/JJ	.	.	.
8G\L	.	8c\L	.	16f#/LL	.	.	.
.	.	.	.	16d/	.	.	.
8G\J	.	8c\J	.	16e/	.	16bb\LL	.
.	.	.	.	16f#/JJ)	.	16aa\JJ)	.
=362	=362	=362	=362	=362	=362	=362	=362
(16GG/LL	.	8B\L	.	8g'\L	.	4gg\	.
16AA/	.	.	.	.	.	.	.
16BB/	.	8d\J	.	8dd'\J	.	.	.
16C/JJ	.	.	.	.	.	.	.
16D/LL	.	8g\L	.	8gg'\L	.	4r	.
16C/	.	.	.	.	.	.	.
16BB/	.	8g\J	.	8gg'\J	.	.	.
16AA/JJ	.	.	.	.	.	.	.
=363	=363	=363	=363	=363	=363	=363	=363
16GG/LL	.	(4.b\	.	(4.bb\	.	2r	.
16AA/	.	.	.	.	.	.	.
16BB/	.	.	.	.	.	.	.
16C/JJ	.	.	.	.	.	.	.
16D\LL	.	.	.	.	.	.	.
16E\	.	.	.	.	.	.	.
16F#\	.	16a\LL	.	16aa\LL	.	.	.
16G\JJ)	.	16g\JJ)	.	16gg\JJ)	.	.	.
=364	=364	=364	=364	=364	=364	=364	=364
8GG/L	.	8f#'\L	.	8ff#'\L	.	8dd'\L	.
8GG/J	.	(16A\L	.	(16a\L	.	8dd'\J	.
.	.	16B\JJ	.	16b\JJ	.	.	.
8GG/L	.	16c/LL	.	16cc/LL	.	8aa'\L	.
.	.	16B/	.	16b/	.	.	.
8GG/J	.	16A/	.	16a/	.	8aa'\J	.
.	.	16G/JJ)	.	16g/JJ)	.	.	.
=365	=365	=365	=365	=365	=365	=365	=365
8GG/L	.	(16F#/LL	.	16f#/LL	.	(4.ccc\	.
.	.	16G/	.	16g/	.	.	.
8GG/J	.	16A/	.	16a/	.	.	.
.	.	16G/JJ	.	16g/JJ	.	.	.
8GG/L	.	16F#/LL	.	16f#/LL	.	.	.
.	.	16D/	.	(16d/	.	.	.
8GG/J	.	16E/	.	16e/	.	16bb\LL	.
.	.	16F#/JJ)	.	16f#/JJ)	.	16aa\JJ)	.
=366	=366	=366	=366	=366	=366	=366	=366
8GG/L	.	8G/	.	8g/	.	8gg'\L	.
8G/J	.	4c\	.	4f#/	.	(16aa\L	.
.	.	.	.	.	.	16bb\JJ	.
8G\L	.	.	.	.	.	8ccc'\L)	.
8G\J	.	8c\	.	8f#/	.	(16bb\L	.
.	.	.	.	.	.	16aa\JJ	.
=367	=367	=367	=367	=367	=367	=367	=367
8GG/L	.	8B/	.	8g/	.	8gg'\L)	.
8G/J	.	4c\	.	4f#/	.	(16aa\L	.
.	.	.	.	.	.	16bb\JJ	.
8G\L	.	.	.	.	.	8ccc'\L)	.
8G\J	.	8c\	.	8f#/	.	(16bb\L	.
.	.	.	.	.	.	16aa\JJ	.
=368	=368	=368	=368	=368	=368	=368	=368
8GG'/L	ff	8B'/L	ff	8g'/L	.	8gg'\)	ff
16FF#/L	.	(16A/L	.	(16a/L	.	4ddd\	.
16EE/JJ	.	16B/JJ	.	16b/JJ	.	.	.
8DD'/L	.	8c'/L)	.	8cc'\L)	.	.	.
16EE/L	.	(16B/L	.	(16b\L	.	[8ddd\	.
16FF#/JJ	.	16A/JJ	.	16a\JJ	.	.	.
=369	=369	=369	=369	=369	=369	=369	=369
8GG'/L	.	8G'/L)	.	8g'/L)	.	8ddd\]	.
16FF#/L	.	(16A/L	.	(16a/L	.	4ddd\	.
16EE/JJ	.	16B/JJ	.	16b/JJ	.	.	.
8DD'/L	.	8c'/L)	.	8cc'\L)	.	.	.
16EE/L	.	(16B/L	.	(16b\L	.	[8ddd\	.
16FF#/JJ	.	16A/JJ)	.	16a\JJ)	.	.	.
=370	=370	=370	=370	=370	=370	=370	=370
4GG'/	.	4G'/	.	4g'/	.	4ddd\]	.
4r	.	4r	.	4b'\	.	4bb\	.
=371	=371	=371	=371	=371	=371	=371	=371
4d'\	.	4dd'\	.	2g/	.	2gg\	.
4B'\	.	4b'\	.	.	.	.	.
=372	=372	=372	=372	=372	=372	=372	=372
2G\	.	2g\	.	4b'\	.	4bb'\	.
.	.	.	.	4g'/	.	4gg'\	.
=373	=373	=373	=373	=373	=373	=373	=373
4B'\	.	4b'\	.	2d/	.	2dd\	.
4G'\	.	4g'\	.	.	.	.	.
=374	=374	=374	=374	=374	=374	=374	=374
2D\	.	2d\	.	4g'/	.	4gg'\	.
.	.	.	.	4d'/	.	4dd'\	.
=375	=375	=375	=375	=375	=375	=375	=375
4G'\	.	4g'\	.	2B/	.	2b\	.
4D'\	.	4d'\	.	.	.	.	.
=376	=376	=376	=376	=376	=376	=376	=376
4BB/	.	4B/	.	4d/	.	8dd'\L	.
.	.	.	.	.	.	8b'\J	.
8d\L	.	[4B/	.	[4d/	.	4g/	.
8B\J	.	.	.	.	.	.	.
=377	=377	=377	=377	=377	=377	=377	=377
4G\	.	4B/]	.	4d/]	.	8b/L	.
.	.	.	.	.	.	8g/J	.
8B\L	.	[4B/	.	[4d/	.	4d/	.
8G\J	.	.	.	.	.	.	.
=378	=378	=378	=378	=378	=378	=378	=378
4D\	.	4B/]	.	4d/]	.	8g/L	.
.	.	.	.	.	.	8d/J	.
8G\L	.	[4B/	.	[4d/	.	4B/	.
8D\J	.	.	.	.	.	.	.
=379	=379	=379	=379	=379	=379	=379	=379
4BB/	.	4B/]	.	4d/]	.	8d/L	.
.	.	.	.	.	.	8B/J	.
8D/L	.	[4B/	.	[4d/	.	4G/	.
8BB/J	.	.	.	.	.	.	.
=380	=380	=380	=380	=380	=380	=380	=380
4GG/	.	4B/]	.	4d/]	.	8d/L	.
.	.	.	.	.	.	8B/J	.
8D/L	.	[4B/	.	[4d/	.	4G/	.
8BB/J	.	.	.	.	.	.	.
=381	=381	=381	=381	=381	=381	=381	=381
4GG/	.	4B/]	.	4d/]	.	8d/L	.
.	.	.	.	.	.	8B/J	.
8D/L	.	[4B/	.	[4d/	.	4G/	.
8BB/J	.	.	.	.	.	.	.
=382	=382	=382	=382	=382	=382	=382	=382
2GG/	.	4B/]	.	4d/]	.	8d/L	.
.	.	.	.	.	.	8B/J	.
.	.	[4B/	.	[4d/	.	[4G/	.
=383	=383	=383	=383	=383	=383	=383	=383
(8D/L	.	2B/_	.	2d/_	.	2G/]	.
8BB/J	>	.	.	.	.	.	.
[4GG/)	.	.	.	.	.	.	.
=384	=384	=384	=384	=384	=384	=384	=384
2GG/]	p	4B/]	>	4d/]	>	8d/L	>
.	.	.	.	.	.	8B/J	.
.	.	[4B/	.	[4d/	.	[4G/	.
=385	=385	=385	=385	=385	=385	=385	=385
(8D/L	.	2B/_	.	2d/_	.	2G/]	.
8BB/J	.	.	.	.	.	.	.
[4GG/)	.	.	.	.	.	.	.
=386	=386	=386	=386	=386	=386	=386	=386
2GG/]	pp	4B/]	pp	4d/]	pp	8fn/L	pp
.	.	.	.	.	.	8d/J	.
.	.	[4B/	.	[4d/	.	[4G/	.
=387	=387	=387	=387	=387	=387	=387	=387
(8Fn\L	.	2B;/]	.	2d;/]	.	2G;/]	.
8D\J	.	.	.	.	.	.	.
4GG;/)	.	.	.	.	.	.	.
=388	=388	=388	=388	=388	=388	=388	=388
4C'/	pp	4c'\	pp	4e'/	pp	4g'/	pp
4c'\	.	4e'\	.	4g'/	.	4cc'\	.
=389	=389	=389	=389	=389	=389	=389	=389
4.c\	.	4.e\	.	4.g/	.	(4.ee\	.
8c\	.	8e\	.	8g/	.	16dd\LL	.
.	.	.	.	.	.	16cc\JJ)	.
=390	=390	=390	=390	=390	=390	=390	=390
8d'\L	.	8e#'\L	.	8g'/L	.	8b'\L	.
8c'\J	.	8en'\J	.	8g'/J	.	8cc'\J	.
8B'\L	.	8d'\L	.	8g'/L	.	8dd'\L	.
8A'\J	.	8c'\J	.	8g'/J	.	8ee'\J	.
=391	=391	=391	=391	=391	=391	=391	=391
4G\	.	4B/	.	4g/	.	8ffn\	.
.	.	.	.	.	.	4r	.
4r	.	4r	.	4r	.	.	.
.	.	.	.	.	.	8r	.
=392	=392	=392	=392	=392	=392	=392	=392
4C'/	.	4e'\	.	4g'/	.	4g'/	.
4c'\	.	4e'\	.	4g'/	.	4cc'\	.
=393	=393	=393	=393	=393	=393	=393	=393
2c\	.	2e\	.	2g/	.	2ee\	.
=394	=394	=394	=394	=394	=394	=394	=394
4FF#'/	.	4A'/	.	4d'/	.	4d'/	.
4F#'\	.	4A'/	.	4d'/	.	4a'/	.
=395	=395	=395	=395	=395	=395	=395	=395
4.F#\	.	4.A/	.	2d/	.	2cc\	.
8D\	.	8F#/	.	.	.	.	.
=396	=396	=396	=396	=396	=396	=396	=396
4G'\	.	4B'/	.	4d'/	.	4b'\	.
*clefC4	*clefG2	*	*	*	*	*	*
4g'\	.	4b'\	.	4dd'\	.	4gg'\	.
=397	=397	=397	=397	=397	=397	=397	=397
4.g\	.	4.b\	.	4.dd\	.	(4.bb\	.
8g\	.	8b\	.	8dd\	.	16aa\LL	.
.	.	.	.	.	.	16gg\JJ)	.
=398	=398	=398	=398	=398	=398	=398	=398
8a'\L	.	8cc'\L	.	8dd'\L	.	8ff#'\L	.
8g'\J	.	8b'\J	.	8dd'\J	.	8gg'\J	.
8f#'\L	.	8a'\L	.	8dd'\L	.	8aa'\L	.
8e'\J	.	8g'\J	.	8dd'\J	.	8bb'\J	.
=399	=399	=399	=399	=399	=399	=399	=399
4d'\	.	4f#'\	.	4dd'\	.	4ccc'\	.
4r	.	4r	.	4r	.	4r	.
=400	=400	=400	=400	=400	=400	=400	=400
*clefF4	*clefF4	*	*	*	*	*	*
4D'\	.	4f#'\	.	4a'/	.	4dd'\	.
4d'\	.	4f#'\	.	4dd'\	.	4aa'\	.
=401	=401	=401	=401	=401	=401	=401	=401
4.d\	.	4.f#\	.	4.dd\	.	(4.ccc\	.
8c\	.	8f#\	.	8dd\	.	16bb\LL	.
.	.	.	.	.	.	16aa\JJ)	.
=402	=402	=402	=402	=402	=402	=402	=402
8B'\L	<	8g'\L	<	8dd'\L	<	8ddd'\L	<
8e'\J	.	8g'\J	.	8b'\J	.	8bb'\J	.
8c'\L	.	8a'\L	.	8cc'\L	.	8ccc'\L	.
8d'\J	.	8f#'\J	.	8a'\J	.	8aa'\J	.
=403	=403	=403	=403	=403	=403	=403	=403
8B'\L	.	8g'\L	.	8dd'\L	.	8ddd'\L	.
8e'\J	.	8g'\J	.	8b'\J	.	8bb'\J	.
8c'\L	.	8a'\L	.	8cc'\L	.	8ccc'\L	.
8d'\J	.	8f#'\J	.	8a'\J	.	8aa'\J	.
=404	=404	=404	=404	=404	=404	=404	=404
8B'\L	.	8g'\L	.	8dd'\L	.	8ddd'\L	.
8E'\J	.	8g'\J	.	8gg'\J	.	8bb'\J	.
8C'/L	.	8e'\L	.	8ee'\L	.	8ccc'\L	.
8D'/J	.	8f#'\J	.	8ff#'\J	.	8aa'\J	.
=405	=405	=405	=405	=405	=405	=405	=405
8BB'/L	.	8g'\L	.	8gg'\L	.	8ddd'\L	.
8E'/J	.	8g'\J	.	8gg'\J	.	8bb'\J	.
8C'/L	.	8e'\L	.	8ee'\L	.	8ccc'\L	.
8D'/J	.	8f#'\J	.	8ff#'\J	.	8aa'\J	.
=406	=406	=406	=406	=406	=406	=406	=406
16BB/LL	.	16g\LL	.	16gg\LL	.	16ddd\LL	.
16BB/	.	16g\	.	16gg\	.	16ddd\	.
16E/	.	16g\	.	16gg\	.	16bb\	.
16E/JJ	.	16g\JJ	.	16gg\JJ	.	16bb\JJ	.
16C/LL	.	16e\LL	.	16ee\LL	.	16ccc\LL	.
16C/	.	16e\	.	16ee\	.	16ccc\	.
16D/	.	16f#\	.	16ff#\	.	16aa\	.
16D/JJ	.	16f#\JJ	.	16ff#\JJ	.	16aa\JJ	.
=407	=407	=407	=407	=407	=407	=407	=407
16BB/LL	.	16g\LL	.	16gg\LL	.	16ddd\LL	.
16BB/	.	16g\	.	16gg\	.	16ddd\	.
16E/	.	16g\	.	16gg\	.	16bb\	.
16E/JJ	.	16g\JJ	.	16gg\JJ	.	16bb\JJ	.
16C/LL	.	16e\LL	.	16ee\LL	.	16ccc\LL	.
16C/	.	16e\	.	16ee\	.	16ccc\	.
16D/	.	16f#\	.	16ff#\	.	16aa\	.
16D/JJ	.	16f#\JJ	.	16ff#\JJ	.	16aa\JJ	.
=408	=408	=408	=408	=408	=408	=408	=408
8GG\L	ff	16g\LL	ff	8gg\L	ff	16ddd\LL	ff
.	.	16g\	.	.	.	16ddd\	.
8B\J	.	16b\	.	16b\L	.	16bb\	.
.	.	16b\JJ	.	16b\JJ	.	16bb\JJ	.
8G\L	.	16g\LL	.	16g/LL	.	16gg\LL	.
.	.	16g\	.	16g/	.	16gg\	.
8D\J	.	16d\	.	16d/	.	16dd\	.
.	.	16d\JJ	.	16d/JJ	.	16dd\JJ	.
=409	=409	=409	=409	=409	=409	=409	=409
8BB/L	.	16B/LL	.	16B/LL	.	16b/LL	.
.	.	16B/	.	16B/	.	16b/	.
8GG/J	.	16G/	.	16G/	.	16g/	.
.	.	16G/JJ	.	16G/JJ	.	16g/JJ	.
8D/L	.	16d/LL	.	16d/LL	.	8d/L	.
.	.	16d/	.	16d/	.	.	.
8DD/J	.	16D/	.	16cc/	.	8a/J 8ff#/	.
.	.	16D/JJ	.	16cc/JJ	.	.	.
=410	=410	=410	=410	=410	=410	=410	=410
4GG/	.	4G/	.	4d/ 4b/	.	4b\ 4gg\	.
4r	.	4r	.	4r	.	4r	.
=411	=411	=411	=411	=411	=411	=411	=411
4G\	ff	4g\	ff	4b\ 4gg\	ff	4g\ 4dd\ 4bb\	ff
4r	.	4r	.	4r	.	4r	.
=412	=412	=412	=412	=412	=412	=412	=412
4GG/	.	4G/	.	4G/	.	4G/	.
4r	.	4r	.	4r	.	4r	.
==	==	==	==	==	==	==	==
*-	*-	*-	*-	*-	*-	*-	*-
!!!ENC: Craig Stuart Sapp
!!!END: 2006/04/06/
